;FLAVOR:RepRap
;TIME:623
;Filament used: 0.141635m
;Layer height: 0.1
;MINX:0.527
;MINY:1.054
;MINZ:0.3
;MAXX:21.094
;MAXY:15.286
;MAXZ:13.3
;Generated with Cura_SteamEngine 4.12.1
T0
M104 S200
M109 S200
M82 ;absolute extrusion mode
G28 ;Home
G1 Z15.0 F6000 ;Move the platform down 15mm
;Prime the extruder
G92 E0
G1 F200 E3
G92 E0
M83 ;relative extrusion mode
G1 F1500 E-6.5
;LAYER_COUNT:131
;LAYER:0
M107
G0 F3600 X2.557 Y2.596 Z0.3
;TYPE:SKIRT
G1 F1500 E6.5
G1 F1800 X2.978 Y2.307 E0.02548
G1 X3.154 Y2.2 E0.01028
G1 X3.703 Y1.914 E0.03088
G1 X4.36 Y1.678 E0.03483
G1 X4.439 Y1.656 E0.00409
G1 X5.263 Y1.503 E0.04181
G1 X5.982 Y1.443 E0.036
G1 X11.291 Y1.102 E0.26541
G1 X12.267 Y1.056 E0.04875
G1 X12.657 Y1.054 E0.01946
G1 X13.406 Y1.094 E0.03742
G1 X14.06 Y1.177 E0.03289
G1 X14.755 Y1.32 E0.0354
G1 X15.444 Y1.524 E0.03585
G1 X16.192 Y1.812 E0.03999
G1 X16.978 Y2.198 E0.04369
G1 X17.473 Y2.492 E0.02872
G1 X17.908 Y2.79 E0.02631
G1 X18.413 Y3.188 E0.03208
G1 X18.911 Y3.641 E0.03359
G1 X19.352 Y4.102 E0.03183
G1 X19.81 Y4.66 E0.03602
G1 X20.179 Y5.187 E0.0321
G1 X20.453 Y5.651 E0.02688
G1 X20.562 Y5.862 E0.01185
G1 X20.81 Y6.429 E0.03088
G1 X20.983 Y7.024 E0.03091
G1 X21.078 Y7.636 E0.0309
G1 X21.094 Y8.246 E0.03044
G1 X21.085 Y8.484 E0.01188
G1 X21.021 Y9.1 E0.0309
G1 X20.879 Y9.703 E0.03091
G1 X20.661 Y10.283 E0.03091
G1 X20.334 Y10.903 E0.03497
G1 X20.01 Y11.409 E0.02998
G1 X19.638 Y11.902 E0.03081
G1 X19.127 Y12.485 E0.03868
G1 X18.59 Y13.011 E0.0375
G1 X18.103 Y13.405 E0.03125
G1 X17.46 Y13.858 E0.03924
G1 X16.997 Y14.134 E0.02689
G1 X16.265 Y14.503 E0.0409
G1 X15.711 Y14.728 E0.02983
G1 X14.876 Y14.991 E0.04368
G1 X14.096 Y15.16 E0.03982
G1 X13.252 Y15.253 E0.04236
G1 X12.589 Y15.286 E0.03312
G1 X12.099 Y15.278 E0.02445
G1 X11.106 Y15.223 E0.04962
G1 X6.076 Y14.902 E0.25146
G1 X5.375 Y14.846 E0.03508
G1 X4.761 Y14.76 E0.03093
G1 X4.164 Y14.596 E0.03089
G1 X3.566 Y14.35 E0.03226
G1 X3.017 Y14.064 E0.03088
G1 X2.509 Y13.71 E0.03089
G1 X2.051 Y13.293 E0.0309
G1 X1.564 Y12.701 E0.03824
G1 X1.431 Y12.51 E0.01161
G1 X1.111 Y11.98 E0.03089
G1 X0.861 Y11.413 E0.03092
G1 X0.663 Y10.708 E0.03653
G1 X0.643 Y10.608 E0.00509
G1 X0.551 Y9.768 E0.04216
G1 X0.527 Y8.565 E0.06003
G1 X0.529 Y7.098 E0.07319
G1 X0.538 Y6.695 E0.02011
G1 X0.577 Y6.187 E0.02542
G1 X0.604 Y5.978 E0.01051
G1 X0.722 Y5.37 E0.0309
G1 X0.918 Y4.783 E0.03087
G1 X1.224 Y4.163 E0.03449
G1 X1.332 Y3.979 E0.01064
G1 X1.68 Y3.466 E0.03093
G1 X2.09 Y3.003 E0.03085
G1 X2.557 Y2.596 E0.03091
G0 F3600 X2.861 Y2.868
G1 F1800 X3.362 Y2.542 E0.02982
G1 X3.889 Y2.269 E0.02961
G1 X4.468 Y2.063 E0.03066
G1 X4.547 Y2.041 E0.00409
G1 X5.301 Y1.901 E0.03826
G1 X6.012 Y1.841 E0.0356
G1 X11.31 Y1.502 E0.26486
G1 X12.286 Y1.456 E0.04875
G1 X12.643 Y1.454 E0.01781
G1 X13.362 Y1.491 E0.03592
G1 X13.99 Y1.571 E0.03158
G1 X14.649 Y1.706 E0.03356
G1 X15.309 Y1.9 E0.03432
G1 X16.024 Y2.175 E0.03822
G1 X16.778 Y2.544 E0.04188
G1 X17.255 Y2.827 E0.02767
G1 X17.678 Y3.118 E0.02562
G1 X18.159 Y3.497 E0.03055
G1 X18.637 Y3.932 E0.03224
G1 X19.057 Y4.372 E0.03035
G1 X19.488 Y4.897 E0.03389
G1 X19.846 Y5.409 E0.03117
G1 X20.206 Y6.046 E0.0365
G1 X20.442 Y6.59 E0.02958
G1 X20.603 Y7.16 E0.02955
G1 X20.686 Y7.747 E0.02958
G1 X20.685 Y8.469 E0.03602
G1 X20.623 Y9.059 E0.0296
G1 X20.482 Y9.635 E0.02959
G1 X20.133 Y10.442 E0.04387
G1 X19.985 Y10.708 E0.01519
G1 X19.687 Y11.172 E0.02751
G1 X19.33 Y11.647 E0.02964
G1 X18.831 Y12.216 E0.03776
G1 X18.327 Y12.709 E0.03517
G1 X17.857 Y13.09 E0.03019
G1 X17.249 Y13.519 E0.03712
G1 X16.809 Y13.78 E0.02552
G1 X16.108 Y14.135 E0.0392
G1 X15.571 Y14.353 E0.02891
G1 X14.783 Y14.602 E0.04123
G1 X14.037 Y14.764 E0.03809
G1 X13.214 Y14.854 E0.0413
G1 X12.589 Y14.886 E0.03122
G1 X12.122 Y14.879 E0.0233
G1 X11.132 Y14.824 E0.04947
G1 X6.187 Y14.509 E0.24721
G1 X5.405 Y14.447 E0.03914
G1 X4.818 Y14.363 E0.02958
G1 X4.247 Y14.201 E0.02961
G1 X3.727 Y13.984 E0.02811
G1 X3.202 Y13.709 E0.02957
G1 X2.719 Y13.365 E0.02958
G1 X2.286 Y12.96 E0.02958
G1 X1.892 Y12.472 E0.03129
G1 X1.759 Y12.281 E0.01161
G1 X1.454 Y11.773 E0.02956
G1 X1.22 Y11.228 E0.02959
G1 X1.055 Y10.63 E0.03095
G1 X1.035 Y10.53 E0.00509
G1 X0.951 Y9.759 E0.03869
G1 X0.927 Y8.566 E0.05953
G1 X0.929 Y7.107 E0.07279
G1 X0.973 Y6.238 E0.04341
G1 X1 Y6.029 E0.01051
G1 X1.116 Y5.448 E0.02956
G1 X1.308 Y4.887 E0.02958
G1 X1.569 Y4.366 E0.02907
G1 X1.677 Y4.182 E0.01064
G1 X2.011 Y3.692 E0.02959
G1 X2.408 Y3.251 E0.0296
G1 X2.861 Y2.868 E0.0296
G0 F3600 X2.725 Y3.502
G1 F1800 X3.394 Y2.991 E0.042
G1 X3.57 Y2.884 E0.01028
G1 X4.073 Y2.625 E0.02823
G1 X4.575 Y2.449 E0.02654
G1 X4.654 Y2.427 E0.00409
G1 X5.34 Y2.299 E0.03482
G1 X6.042 Y2.24 E0.03515
G1 X11.329 Y1.901 E0.26431
G1 X12.305 Y1.855 E0.04875
G1 X12.63 Y1.853 E0.01621
G1 X13.317 Y1.889 E0.03432
G1 X13.921 Y1.964 E0.03037
G1 X14.543 Y2.092 E0.03168
G1 X15.174 Y2.277 E0.03281
G1 X15.856 Y2.538 E0.03643
G1 X16.578 Y2.89 E0.04007
G1 X17.037 Y3.162 E0.02662
G1 X17.449 Y3.446 E0.02497
G1 X17.905 Y3.805 E0.02895
G1 X18.363 Y4.224 E0.03097
G1 X18.763 Y4.643 E0.0289
G1 X19.166 Y5.134 E0.03169
G1 X19.514 Y5.631 E0.03027
G1 X19.851 Y6.229 E0.03425
G1 X20.074 Y6.748 E0.02818
G1 X20.222 Y7.294 E0.02822
G1 X20.291 Y7.855 E0.0282
G1 X20.285 Y8.454 E0.02989
G1 X20.224 Y9.016 E0.0282
G1 X20.084 Y9.564 E0.02822
G1 X19.783 Y10.248 E0.03728
G1 X19.635 Y10.514 E0.01519
G1 X19.365 Y10.935 E0.02495
G1 X19.021 Y11.393 E0.02858
G1 X18.536 Y11.946 E0.0367
G1 X18.064 Y12.407 E0.03292
G1 X17.61 Y12.775 E0.02916
G1 X17.037 Y13.179 E0.03498
G1 X16.256 Y13.621 E0.04477
G1 X15.724 Y13.864 E0.02918
G1 X15.027 Y14.116 E0.03698
G1 X14.323 Y14.301 E0.03632
G1 X13.651 Y14.411 E0.03397
G1 X13.027 Y14.467 E0.03126
G1 X12.369 Y14.486 E0.03284
G1 X12.144 Y14.48 E0.01123
G1 X11.157 Y14.425 E0.04932
G1 X6.142 Y14.105 E0.25071
G1 X5.434 Y14.048 E0.03544
G1 X4.875 Y13.966 E0.02819
G1 X4.118 Y13.719 E0.03973
G1 X3.889 Y13.618 E0.01249
G1 X3.389 Y13.354 E0.02821
G1 X2.931 Y13.022 E0.02822
G1 X2.525 Y12.629 E0.02819
G1 X2.087 Y12.053 E0.0361
G1 X1.798 Y11.567 E0.02821
G1 X1.58 Y11.046 E0.02818
G1 X1.448 Y10.551 E0.02556
G1 X1.428 Y10.451 E0.00509
G1 X1.351 Y9.751 E0.03513
G1 X1.327 Y8.566 E0.05913
G1 X1.329 Y7.116 E0.07234
G1 X1.37 Y6.29 E0.04126
G1 X1.397 Y6.081 E0.01051
G1 X1.509 Y5.526 E0.02825
G1 X1.698 Y4.994 E0.02817
G1 X2.022 Y4.384 E0.03446
G1 X2.342 Y3.918 E0.0282
G1 X2.725 Y3.502 E0.02821
G0 F3600 X3.04 Y3.755
G1 F1800 X3.602 Y3.333 E0.03506
G1 X3.778 Y3.226 E0.01028
G1 X4.256 Y2.982 E0.02677
G1 X4.761 Y2.812 E0.02658
G1 X5.379 Y2.697 E0.03136
G1 X6.072 Y2.639 E0.03469
G1 X11.348 Y2.301 E0.26376
G1 X12.324 Y2.255 E0.04875
G1 X12.616 Y2.253 E0.01457
G1 X13.273 Y2.286 E0.03282
G1 X13.851 Y2.358 E0.02906
G1 X14.438 Y2.478 E0.02989
G1 X15.039 Y2.653 E0.03123
G1 X15.688 Y2.902 E0.03468
G1 X16.378 Y3.237 E0.03827
G1 X16.818 Y3.497 E0.0255
G1 X17.442 Y3.942 E0.03824
G1 X17.827 Y4.27 E0.02523
G1 X18.276 Y4.705 E0.03119
G1 X18.736 Y5.232 E0.0349
G1 X19.054 Y5.663 E0.02672
G1 X19.386 Y6.202 E0.03158
G1 X19.495 Y6.413 E0.01185
G1 X19.705 Y6.906 E0.02673
G1 X19.84 Y7.425 E0.02675
G1 X19.894 Y8.201 E0.03881
G1 X19.885 Y8.439 E0.01188
G1 X19.825 Y8.972 E0.02676
G1 X19.687 Y9.49 E0.02674
G1 X19.434 Y10.053 E0.03079
G1 X19.042 Y10.699 E0.0377
G1 X18.713 Y11.138 E0.02737
G1 X18.24 Y11.677 E0.03578
G1 X17.801 Y12.106 E0.03062
G1 X17.364 Y12.46 E0.02806
G1 X16.826 Y12.84 E0.03286
G1 X16.069 Y13.268 E0.04339
G1 X15.567 Y13.496 E0.02751
G1 X14.9 Y13.737 E0.03538
G1 X14.23 Y13.912 E0.03455
G1 X13.614 Y14.013 E0.03114
G1 X13.004 Y14.068 E0.03056
G1 X12.369 Y14.086 E0.03169
G1 X12.167 Y14.08 E0.01008
G1 X11.183 Y14.026 E0.04917
G1 X6.238 Y13.711 E0.24721
G1 X5.464 Y13.649 E0.03874
G1 X4.934 Y13.569 E0.02674
G1 X4.279 Y13.353 E0.03441
G1 X4.05 Y13.252 E0.01249
G1 X3.577 Y13 E0.02674
G1 X3.147 Y12.68 E0.02674
G1 X2.768 Y12.299 E0.02681
G1 X2.416 Y11.824 E0.0295
G1 X2.143 Y11.362 E0.02677
G1 X1.942 Y10.865 E0.02675
G1 X1.82 Y10.373 E0.02529
G1 X1.751 Y9.742 E0.03167
G1 X1.727 Y8.566 E0.05868
G1 X1.729 Y7.125 E0.07189
G1 X1.767 Y6.341 E0.03916
G1 X1.794 Y6.132 E0.01051
G1 X1.902 Y5.606 E0.02679
G1 X2.087 Y5.103 E0.02674
G1 X2.367 Y4.587 E0.02929
G1 X2.672 Y4.146 E0.02675
G1 X3.04 Y3.755 E0.02679
G0 F3600 X3.353 Y4.011
G1 F1800 X3.81 Y3.675 E0.0283
G1 X3.986 Y3.568 E0.01028
G1 X4.437 Y3.34 E0.02521
G1 X4.869 Y3.197 E0.0227
G1 X5.417 Y3.095 E0.02781
G1 X6.102 Y3.038 E0.03429
G1 X11.366 Y2.701 E0.26316
G1 X12.342 Y2.655 E0.04875
G1 X12.602 Y2.653 E0.01297
G1 X13.228 Y2.684 E0.03127
G1 X13.781 Y2.752 E0.0278
G1 X14.332 Y2.864 E0.02805
G1 X14.904 Y3.03 E0.02971
G1 X15.52 Y3.265 E0.03289
G1 X16.178 Y3.583 E0.03646
G1 X16.643 Y3.86 E0.027
G1 X17.187 Y4.251 E0.03342
G1 X17.815 Y4.807 E0.04185
G1 X18.174 Y5.184 E0.02597
G1 X18.521 Y5.608 E0.02733
G1 X18.848 Y6.076 E0.02848
G1 X19.14 Y6.596 E0.02975
G1 X19.336 Y7.062 E0.02522
G1 X19.456 Y7.554 E0.02527
G1 X19.495 Y8.186 E0.03159
G1 X19.486 Y8.424 E0.01188
G1 X19.427 Y8.926 E0.02522
G1 X19.289 Y9.413 E0.02525
G1 X18.936 Y10.125 E0.03965
G1 X18.516 Y10.74 E0.03715
G1 X18.183 Y11.146 E0.0262
G1 X17.819 Y11.538 E0.02669
G1 X17.347 Y11.965 E0.03175
G1 X16.785 Y12.386 E0.03503
G1 X16.246 Y12.721 E0.03166
G1 X15.636 Y13.032 E0.03416
G1 X15.152 Y13.228 E0.02605
G1 X14.502 Y13.435 E0.03403
G1 X13.86 Y13.577 E0.0328
G1 X13.101 Y13.66 E0.03809
G1 X12.589 Y13.686 E0.02558
G1 X12.189 Y13.681 E0.01996
G1 X11.208 Y13.627 E0.04902
G1 X6.207 Y13.307 E0.25001
G1 X5.494 Y13.25 E0.03569
G1 X4.994 Y13.173 E0.02524
G1 X4.441 Y12.987 E0.02911
G1 X4.212 Y12.886 E0.01249
G1 X3.767 Y12.646 E0.02522
G1 X3.365 Y12.339 E0.02524
G1 X2.877 Y11.787 E0.03676
G1 X2.744 Y11.596 E0.01161
G1 X2.489 Y11.159 E0.02524
G1 X2.305 Y10.688 E0.02523
G1 X2.212 Y10.295 E0.02015
G1 X2.151 Y9.734 E0.02815
G1 X2.127 Y8.567 E0.05823
G1 X2.129 Y7.134 E0.07149
G1 X2.163 Y6.392 E0.03706
G1 X2.19 Y6.183 E0.01051
G1 X2.295 Y5.688 E0.02525
G1 X2.475 Y5.216 E0.0252
G1 X2.712 Y4.789 E0.02436
G1 X3.002 Y4.375 E0.02522
G1 X3.353 Y4.011 E0.02523
G1 F1500 E-6.5
;MESH:??????-1.stl
G0 F3600 X5.202 Y5.769
G0 X5.942 Y6.87
G0 X6.028 Y8.263
G1 F1500 E6.5
G0 F3600 X5.929 Y8.259
;TYPE:WALL-INNER
G1 F1800 X5.928 Y6.857 E0.06995
G1 X12.339 Y6.446 E0.3205
G1 X12.833 Y6.451 E0.02465
G1 X13.314 Y6.52 E0.02424
G1 X13.833 Y6.669 E0.02694
G1 X14.258 Y6.856 E0.02317
G1 X14.727 Y7.144 E0.02746
G1 X15.103 Y7.456 E0.02438
G1 X15.42 Y7.797 E0.02323
G1 X15.675 Y8.167 E0.02242
G1 X15.525 Y8.403 E0.01395
G1 X15.16 Y8.827 E0.02791
G1 X14.81 Y9.13 E0.0231
G1 X14.404 Y9.401 E0.02435
G1 X13.689 Y9.72 E0.03906
G1 X13.083 Y9.86 E0.03103
G1 X12.569 Y9.898 E0.02571
G1 X12.06 Y9.875 E0.02542
G1 X11.555 Y9.841 E0.02525
G1 X5.928 Y9.481 E0.28131
G1 X5.927 Y8.279 E0.05997
G1 X5.929 Y8.259 E0.001
G0 F3600 X5.529 Y8.24
;TYPE:WALL-OUTER
G1 F1800 X5.528 Y6.738 E0.07494
G1 X5.606 Y6.549 E0.0102
G1 X5.748 Y6.471 E0.00808
G1 X5.798 Y6.465 E0.00251
G1 X12.33 Y6.046 E0.32655
G1 X12.864 Y6.051 E0.02664
G1 X13.4 Y6.128 E0.02702
G1 X13.969 Y6.291 E0.02953
G1 X14.442 Y6.5 E0.0258
G1 X14.96 Y6.818 E0.03032
G1 X15.378 Y7.164 E0.02707
G1 X15.732 Y7.546 E0.02598
G1 X16.092 Y8.067 E0.03159
G1 X16.119 Y8.214 E0.00746
G1 X15.846 Y8.643 E0.02537
G1 X15.445 Y9.109 E0.03067
G1 X15.051 Y9.451 E0.02603
G1 X14.609 Y9.746 E0.02651
G1 X14.16 Y9.972 E0.02508
G1 X13.802 Y10.105 E0.01905
G1 X13.144 Y10.257 E0.03369
G1 X12.572 Y10.299 E0.02861
G1 X12.042 Y10.275 E0.02647
G1 X11.529 Y10.24 E0.02565
G1 X5.757 Y9.871 E0.28855
G1 X5.594 Y9.774 E0.00946
G1 X5.528 Y9.602 E0.00919
G1 X5.527 Y8.261 E0.0669
G1 X5.529 Y8.24 E0.00105
G0 F3600 X5.529 Y8.04
G0 X6.319 Y8.278
;TYPE:SKIN
G1 F1800 X6.318 Y7.224 E0.05258
G1 X12.36 Y6.836 E0.30206
G1 X12.804 Y6.841 E0.02215
G1 X13.232 Y6.902 E0.02157
G1 X13.697 Y7.035 E0.02413
G1 X14.081 Y7.205 E0.02095
G1 X14.499 Y7.461 E0.02445
G1 X14.838 Y7.743 E0.022
G1 X15.207 Y8.175 E0.02834
G1 X14.883 Y8.551 E0.02476
G1 X14.57 Y8.822 E0.02066
G1 X14.22 Y9.055 E0.02098
G1 X13.563 Y9.348 E0.03589
G1 X13.018 Y9.474 E0.02791
G1 X12.574 Y9.508 E0.02222
G1 X12.086 Y9.485 E0.02437
G1 X11.581 Y9.451 E0.02525
G1 X6.318 Y9.114 E0.26311
G1 X6.317 Y8.298 E0.04071
G1 X6.319 Y8.278 E0.001
G0 F3600 X6.496 Y8.759
G1 F1800 X6.693 Y8.956 E0.0139
G0 F3600 X7.298 Y8.995
G1 F1800 X6.498 Y8.195 E0.05644
G0 F3600 X6.498 Y7.629
G1 F1800 X7.902 Y9.033 E0.09906
G0 F3600 X8.507 Y9.072
G1 F1800 X6.807 Y7.373 E0.11991
G0 F3600 X7.338 Y7.338
G1 F1800 X9.111 Y9.111 E0.12509
G0 F3600 X9.716 Y9.15
G1 F1800 X7.87 Y7.304 E0.13025
G0 F3600 X8.401 Y7.27
G1 F1800 X10.32 Y9.189 E0.1354
G0 F3600 X10.925 Y9.228
G1 F1800 X8.933 Y7.236 E0.14055
G0 F3600 X9.465 Y7.202
G1 F1800 X11.53 Y9.267 E0.1457
G0 F3600 X12.135 Y9.306
G1 F1800 X9.996 Y7.167 E0.15092
G0 F3600 X10.528 Y7.134
G1 F1800 X12.711 Y9.317 E0.15402
G0 F3600 X13.204 Y9.244
G1 F1800 X11.059 Y7.1 E0.15131
G0 F3600 X11.591 Y7.066
G1 F1800 X13.64 Y9.114 E0.14453
G0 F3600 X14.031 Y8.94
G1 F1800 X12.123 Y7.032 E0.13462
G0 F3600 X12.677 Y7.02
G1 F1800 X14.384 Y8.727 E0.12044
G0 F3600 X14.695 Y8.473
G1 F1800 X13.342 Y7.119 E0.0955
G1 X13.272 Y7.049
G0 F3600 X14.417 Y7.629
G1 F1800 X14.965 Y8.177 E0.03866
;MESH:NONMESH
G0 F600 X14.965 Y8.177 Z0.4
G0 F3600 X7.383 Y7.309
;TIME_ELAPSED:15.859110
;LAYER:1
M106 S255
;TYPE:WALL-INNER
;MESH:??????-1.stl
G1 F2136.8 X5.834 Y7.309 E0.02576
G1 X5.835 Y6.751 E0.00928
G1 X9.509 Y6.5 E0.06124
G1 X12.358 Y6.301 E0.04749
G1 X13.008 Y6.324 E0.01082
G1 X13.473 Y6.406 E0.00785
G1 X13.929 Y6.543 E0.00792
G1 X14.415 Y6.758 E0.00884
G1 X14.818 Y7.002 E0.00783
G1 X15.171 Y7.278 E0.00745
G1 X15.545 Y7.647 E0.00874
G1 X15.915 Y8.17 E0.01065
G1 X15.545 Y8.688 E0.01059
G1 X15.219 Y9.017 E0.0077
G1 X14.732 Y9.393 E0.01023
G1 X14.277 Y9.648 E0.00867
G1 X13.714 Y9.868 E0.01005
G1 X13.249 Y9.979 E0.00795
G1 X12.731 Y10.038 E0.00867
G1 X12.185 Y10.027 E0.00908
G1 X9.932 Y9.868 E0.03756
G1 X9.708 Y9.854 E0.00373
G1 X5.834 Y9.584 E0.06458
G1 X5.833 Y9.031 E0.0092
G1 X7.383 Y9.03 E0.02578
G1 X7.383 Y7.309 E0.02862
G0 F5400 X6.983 Y7.709
;TYPE:WALL-OUTER
G1 F1424.5 X5.433 Y7.709 E0.02578
G1 X5.435 Y6.612 E0.01824
G1 X5.523 Y6.432 E0.00333
G1 X5.693 Y6.36 E0.00307
G1 X9.481 Y6.101 E0.06314
G1 X10.124 Y6.055 E0.01072
G1 X11.131 Y5.985 E0.01679
G1 X12.353 Y5.9 E0.02037
G1 X13.048 Y5.925 E0.01157
G1 X13.565 Y6.016 E0.00873
G1 X14.071 Y6.168 E0.00879
G1 X14.597 Y6.401 E0.00957
G1 X15.045 Y6.672 E0.00871
G1 X15.439 Y6.98 E0.00832
G1 X15.84 Y7.376 E0.00937
G1 X16.152 Y7.773 E0.0084
G1 X16.372 Y8.168 E0.00752
G1 X16.171 Y8.539 E0.00702
G1 X15.85 Y8.948 E0.00865
G1 X15.482 Y9.32 E0.0087
G1 X14.952 Y9.729 E0.01113
G1 X14.449 Y10.011 E0.00959
G1 X13.835 Y10.25 E0.01096
G1 X13.322 Y10.373 E0.00877
G1 X12.746 Y10.438 E0.00964
G1 X12.169 Y10.427 E0.0096
G1 X9.905 Y10.267 E0.03774
G1 X9.68 Y10.253 E0.00375
G1 X5.658 Y9.973 E0.06705
G1 X5.507 Y9.888 E0.00288
G1 X5.434 Y9.702 E0.00332
G1 X5.432 Y8.631 E0.01781
G1 X6.983 Y8.63 E0.02579
G1 X6.983 Y7.709 E0.01532
G0 F5400 X6.783 Y7.709
G0 X6.783 Y7.209
G0 X7.773 Y7.01
;TYPE:SKIN
G1 F1424.5 X9.536 Y6.89 E0.02939
G1 X12.371 Y6.691 E0.04726
G1 X12.969 Y6.714 E0.00995
G1 X13.377 Y6.785 E0.00689
G1 X13.796 Y6.911 E0.00728
G1 X14.237 Y7.106 E0.00802
G1 X14.923 Y7.58 E0.01387
G1 X15.243 Y7.895 E0.00747
G1 X15.437 Y8.169 E0.00558
G1 X15.247 Y8.434 E0.00542
G1 X14.955 Y8.729 E0.0069
G1 X14.521 Y9.065 E0.00913
G1 X14.109 Y9.296 E0.00786
G1 X13.602 Y9.493 E0.00905
G1 X13.182 Y9.593 E0.00718
G1 X12.709 Y9.648 E0.00792
G1 X12.212 Y9.637 E0.00827
G1 X9.958 Y9.478 E0.03758
G1 X7.773 Y9.327 E0.03642
G1 X7.773 Y7.01 E0.03853
G0 F5400 X7.952 Y7.32
G1 F1424.5 X8.106 Y7.167 E0.00361
G0 F5400 X8.712 Y7.126
G1 F1424.5 X7.952 Y7.886 E0.01787
G0 F5400 X7.952 Y8.452
G1 F1424.5 X9.319 Y7.085 E0.03215
G0 F5400 X9.927 Y7.043
G1 F1424.5 X7.952 Y9.017 E0.04644
G0 F5400 X8.349 Y9.186
G1 F1424.5 X10.535 Y7.001 E0.0514
G0 F5400 X11.143 Y6.958
G1 F1424.5 X8.879 Y9.222 E0.05325
G0 F5400 X9.408 Y9.259
G1 F1424.5 X11.752 Y6.915 E0.05513
G0 F5400 X12.36 Y6.873
G1 F1424.5 X9.937 Y9.295 E0.05697
G0 F5400 X10.465 Y9.333
G1 F1424.5 X12.906 Y6.892 E0.05741
G0 F5400 X13.387 Y6.977
G1 F1424.5 X10.994 Y9.37 E0.05628
G0 F5400 X11.522 Y9.408
