;FLAVOR:RepRap
;TIME:400
;Filament used: 0.0948716m
;Layer height: 0.1
;MINX:-0.581
;MINY:-0.996
;MINZ:0.3
;MAXX:18.07
;MAXY:18.379
;MAXZ:9.4
;Generated with Cura_SteamEngine 4.12.1
T0
M104 S200
M109 S200
M82 ;absolute extrusion mode
G28 ;Home
G1 Z15.0 F6000 ;Move the platform down 15mm
;Prime the extruder
G92 E0
G1 F200 E3
G92 E0
M83 ;relative extrusion mode
G1 F1500 E-6.5
;LAYER_COUNT:92
;LAYER:0
M107
G0 F3600 X1.841 Y1.966 Z0.3
;TYPE:SKIRT
G1 F1500 E6.5
G1 F1800 X2.352 Y1.616 E0.0309
G1 X2.856 Y1.356 E0.02829
G1 X3.592 Y1.031 E0.04014
G1 X6.849 Y-.366 E0.17681
G1 X7.496 Y-.633 E0.03492
G1 X8.083 Y-.832 E0.03092
G1 X8.69 Y-.954 E0.03089
G1 X9.308 Y-.996 E0.0309
G1 X9.926 Y-.958 E0.03089
G1 X10.534 Y-.842 E0.03088
G1 X11.122 Y-.648 E0.03089
G1 X11.681 Y-.379 E0.03095
G1 X12.149 Y-0.079 E0.02773
G1 X12.765 Y0.369 E0.038
G1 X15.607 Y2.494 E0.17704
G1 X16.203 Y2.954 E0.03756
G1 X16.668 Y3.363 E0.0309
G1 X17.076 Y3.829 E0.0309
G1 X17.421 Y4.344 E0.03093
G1 X17.697 Y4.898 E0.03088
G1 X17.899 Y5.484 E0.03092
G1 X18.024 Y6.09 E0.03087
G1 X18.07 Y6.708 E0.03092
G1 X18.044 Y7.25 E0.02707
G1 X17.957 Y8.083 E0.04178
G1 X17.543 Y11.556 E0.1745
G1 X17.447 Y12.278 E0.03634
G1 X17.326 Y12.885 E0.03088
G1 X17.128 Y13.472 E0.03091
G1 X16.856 Y14.028 E0.03088
G1 X16.514 Y14.545 E0.03093
G1 X16.109 Y15.013 E0.03088
G1 X15.647 Y15.426 E0.03092
G1 X15.135 Y15.775 E0.03091
G1 X14.642 Y16.03 E0.02769
G1 X13.939 Y16.343 E0.03839
G1 X10.613 Y17.768 E0.18052
G1 X10.012 Y18.016 E0.03244
G1 X9.762 Y18.111 E0.01334
G1 X9.165 Y18.279 E0.03094
G1 X8.553 Y18.369 E0.03086
G1 X7.933 Y18.379 E0.03094
G1 X7.318 Y18.31 E0.03087
G1 X6.717 Y18.162 E0.03088
G1 X6.139 Y17.937 E0.03094
G1 X5.346 Y17.471 E0.04589
G1 X4.653 Y16.967 E0.04275
G1 X1.886 Y14.898 E0.17237
G1 X1.289 Y14.438 E0.0376
G1 X0.824 Y14.029 E0.0309
G1 X0.415 Y13.564 E0.0309
G1 X0.07 Y13.05 E0.03088
G1 X-.206 Y12.495 E0.03092
G1 X-.409 Y11.91 E0.03089
G1 X-.534 Y11.304 E0.03087
G1 X-.581 Y10.686 E0.03092
G1 X-.555 Y10.138 E0.02737
G1 X-.473 Y9.36 E0.03903
G1 X-0.053 Y5.832 E0.17726
G1 X0.042 Y5.115 E0.03608
G1 X0.162 Y4.507 E0.03092
G1 X0.36 Y3.92 E0.03091
G1 X0.632 Y3.364 E0.03088
G1 X0.974 Y2.847 E0.03093
G1 X1.379 Y2.378 E0.03092
G1 X1.841 Y1.966 E0.03088
G0 F3600 X2.208 Y2.189
G1 F1800 X2.71 Y1.873 E0.02959
G1 X3.018 Y1.722 E0.01711
G1 X3.749 Y1.398 E0.03989
G1 X7.002 Y0.004 E0.17657
G1 X7.649 Y-.263 E0.03492
G1 X8.211 Y-.452 E0.02958
G1 X8.793 Y-.563 E0.02956
G1 X9.385 Y-.596 E0.02958
G1 X9.976 Y-.548 E0.02958
G1 X10.555 Y-.421 E0.02957
G1 X11.112 Y-.218 E0.02958
G1 X11.637 Y0.059 E0.02961
G1 X11.914 Y0.245 E0.01665
G1 X12.525 Y0.69 E0.03771
G1 X15.362 Y2.811 E0.17672
G1 X15.958 Y3.271 E0.03756
G1 X16.402 Y3.664 E0.02958
G1 X16.789 Y4.113 E0.02957
G1 X17.112 Y4.61 E0.02957
G1 X17.366 Y5.146 E0.02959
G1 X17.545 Y5.712 E0.02962
G1 X17.646 Y6.296 E0.02957
G1 X17.668 Y6.889 E0.02961
G1 X17.646 Y7.208 E0.01595
G1 X17.56 Y8.035 E0.04148
G1 X17.147 Y11.503 E0.17424
G1 X17.051 Y12.225 E0.03634
G1 X16.933 Y12.806 E0.02958
G1 X16.738 Y13.366 E0.02958
G1 X16.47 Y13.895 E0.02959
G1 X16.133 Y14.383 E0.02959
G1 X15.734 Y14.821 E0.02956
G1 X15.279 Y15.202 E0.02961
G1 X14.777 Y15.518 E0.02959
G1 X14.479 Y15.664 E0.01656
G1 X13.781 Y15.975 E0.03812
G1 X10.46 Y17.398 E0.18025
G1 X9.859 Y17.646 E0.03244
G1 X9.628 Y17.734 E0.01233
G1 X9.057 Y17.893 E0.02957
G1 X8.47 Y17.974 E0.02956
G1 X7.877 Y17.976 E0.02959
G1 X7.289 Y17.897 E0.0296
G1 X6.717 Y17.74 E0.02959
G1 X6.172 Y17.508 E0.02955
G1 X5.581 Y17.147 E0.03455
G1 X4.892 Y16.647 E0.04247
G1 X2.13 Y14.581 E0.17208
G1 X1.533 Y14.121 E0.0376
G1 X1.089 Y13.729 E0.02955
G1 X0.702 Y13.28 E0.02957
G1 X0.378 Y12.783 E0.0296
G1 X0.124 Y12.247 E0.02959
G1 X-0.055 Y11.682 E0.02957
G1 X-.157 Y11.098 E0.02958
G1 X-.179 Y10.505 E0.02961
G1 X-.157 Y10.179 E0.0163
G1 X-0.076 Y9.407 E0.03873
G1 X0.343 Y5.884 E0.177
G1 X0.438 Y5.167 E0.03608
G1 X0.555 Y4.586 E0.02957
G1 X0.75 Y4.026 E0.02958
G1 X1.018 Y3.497 E0.02959
G1 X1.354 Y3.009 E0.02956
G1 X1.754 Y2.57 E0.02963
G1 X2.208 Y2.189 E0.02957
G0 F3600 X2.127 Y2.769
G1 F1800 X2.573 Y2.422 E0.02819
G1 X3.18 Y2.088 E0.03457
G1 X3.907 Y1.766 E0.03967
G1 X7.154 Y0.373 E0.17627
G1 X7.801 Y0.106 E0.03492
G1 X8.338 Y-0.072 E0.02822
G1 X8.894 Y-.172 E0.02818
G1 X9.459 Y-.194 E0.02821
G1 X10.021 Y-.135 E0.02819
G1 X10.57 Y0.002 E0.02823
G1 X11.093 Y0.215 E0.02817
G1 X11.679 Y0.569 E0.03416
G1 X12.286 Y1.01 E0.03743
G1 X15.118 Y3.127 E0.1764
G1 X15.714 Y3.587 E0.03756
G1 X16.136 Y3.964 E0.02823
G1 X16.501 Y4.396 E0.02822
G1 X16.801 Y4.875 E0.0282
G1 X17.031 Y5.391 E0.02818
G1 X17.185 Y5.935 E0.02821
G1 X17.262 Y6.495 E0.0282
G1 X17.249 Y7.167 E0.03353
G1 X17.163 Y7.988 E0.04118
G1 X16.75 Y11.45 E0.17394
G1 X16.654 Y12.172 E0.03634
G1 X16.54 Y12.726 E0.02822
G1 X16.349 Y13.258 E0.0282
G1 X16.085 Y13.758 E0.02821
G1 X15.754 Y14.216 E0.02819
G1 X15.361 Y14.622 E0.02819
G1 X14.914 Y14.969 E0.02823
G1 X14.317 Y15.299 E0.03403
G1 X13.623 Y15.607 E0.03788
G1 X10.308 Y17.029 E0.17996
G1 X9.707 Y17.277 E0.03244
G1 X9.495 Y17.357 E0.0113
G1 X8.95 Y17.507 E0.0282
G1 X8.389 Y17.579 E0.02822
G1 X7.824 Y17.571 E0.02819
G1 X7.266 Y17.483 E0.02818
G1 X6.725 Y17.317 E0.02823
G1 X6.213 Y17.077 E0.02821
G1 X5.816 Y16.823 E0.02351
G1 X5.132 Y16.327 E0.04215
G1 X2.375 Y14.265 E0.17176
G1 X1.778 Y13.805 E0.0376
G1 X1.355 Y13.429 E0.02824
G1 X0.99 Y12.997 E0.02822
G1 X0.69 Y12.518 E0.0282
G1 X0.459 Y12.002 E0.02821
G1 X0.304 Y11.458 E0.02822
G1 X0.228 Y10.898 E0.02819
G1 X0.241 Y10.221 E0.03378
G1 X0.321 Y9.455 E0.03842
G1 X0.74 Y5.937 E0.17675
G1 X0.835 Y5.22 E0.03608
G1 X0.948 Y4.666 E0.02821
G1 X1.139 Y4.134 E0.0282
G1 X1.403 Y3.634 E0.02821
G1 X1.734 Y3.176 E0.02819
G1 X2.127 Y2.769 E0.02823
G0 F3600 X2.499 Y2.977
G1 F1800 X2.935 Y2.665 E0.02675
G1 X3.342 Y2.453 E0.02289
G1 X4.065 Y2.134 E0.03943
G1 X7.307 Y0.743 E0.176
G1 X7.954 Y0.476 E0.03492
G1 X8.463 Y0.309 E0.02673
G1 X8.992 Y0.22 E0.02676
G1 X9.528 Y0.21 E0.02675
G1 X10.06 Y0.279 E0.02676
G1 X10.575 Y0.427 E0.02673
G1 X11.063 Y0.65 E0.02677
G1 X11.444 Y0.892 E0.02252
G1 X12.046 Y1.33 E0.03714
G1 X14.874 Y3.444 E0.17615
G1 X15.47 Y3.904 E0.03756
G1 X15.869 Y4.262 E0.02674
G1 X16.21 Y4.676 E0.02676
G1 X16.486 Y5.136 E0.02676
G1 X16.691 Y5.632 E0.02678
G1 X16.819 Y6.152 E0.02672
G1 X16.869 Y6.686 E0.02676
G1 X16.851 Y7.126 E0.02197
G1 X16.766 Y7.941 E0.04088
G1 X16.354 Y11.397 E0.17364
G1 X16.258 Y12.119 E0.03634
G1 X16.148 Y12.644 E0.02676
G1 X15.961 Y13.147 E0.02677
G1 X15.701 Y13.616 E0.02675
G1 X15.375 Y14.042 E0.02676
G1 X14.989 Y14.414 E0.02675
G1 X14.552 Y14.725 E0.02676
G1 X14.154 Y14.933 E0.0224
G1 X13.466 Y15.24 E0.03759
G1 X10.155 Y16.659 E0.17972
G1 X9.554 Y16.907 E0.03244
G1 X9.362 Y16.98 E0.01025
G1 X8.845 Y17.12 E0.02672
G1 X8.312 Y17.182 E0.02677
G1 X7.776 Y17.164 E0.02676
G1 X7.248 Y17.067 E0.02678
G1 X6.741 Y16.892 E0.02676
G1 X6.05 Y16.499 E0.03966
G1 X5.371 Y16.006 E0.04186
G1 X2.619 Y13.948 E0.17144
G1 X2.022 Y13.488 E0.0376
G1 X1.622 Y13.13 E0.02678
G1 X1.281 Y12.716 E0.02676
G1 X1.004 Y12.257 E0.02675
G1 X0.799 Y11.761 E0.02678
G1 X0.67 Y11.241 E0.02673
G1 X0.62 Y10.707 E0.02676
G1 X0.638 Y10.262 E0.02222
G1 X0.718 Y9.502 E0.03813
G1 X1.136 Y5.989 E0.1765
G1 X1.231 Y5.272 E0.03608
G1 X1.341 Y4.747 E0.02676
G1 X1.528 Y4.244 E0.02677
G1 X1.787 Y3.775 E0.02673
G1 X2.113 Y3.349 E0.02676
G1 X2.499 Y2.977 E0.02675
G0 F3600 X2.868 Y3.194
G1 F1800 X3.504 Y2.819 E0.03684
G1 X4.222 Y2.501 E0.03918
G1 X7.459 Y1.113 E0.17571
G1 X8.106 Y0.846 E0.03492
G1 X8.587 Y0.691 E0.02521
G1 X9.087 Y0.613 E0.02525
G1 X9.593 Y0.615 E0.02524
G1 X10.091 Y0.697 E0.02518
G1 X10.571 Y0.856 E0.02523
G1 X11.209 Y1.216 E0.03655
G1 X11.807 Y1.651 E0.03689
G1 X14.629 Y3.761 E0.17579
G1 X15.225 Y4.221 E0.03756
G1 X15.6 Y4.56 E0.02522
G1 X15.916 Y4.955 E0.02524
G1 X16.167 Y5.394 E0.02523
G1 X16.345 Y5.867 E0.02521
G1 X16.446 Y6.362 E0.0252
G1 X16.453 Y7.084 E0.03602
G1 X16.369 Y7.894 E0.04063
G1 X15.957 Y11.345 E0.17339
G1 X15.861 Y12.067 E0.03634
G1 X15.755 Y12.561 E0.02521
G1 X15.573 Y13.033 E0.02524
G1 X15.318 Y13.469 E0.0252
G1 X14.998 Y13.861 E0.02525
G1 X14.62 Y14.197 E0.02523
G1 X13.991 Y14.568 E0.03643
G1 X13.308 Y14.872 E0.0373
G1 X10.003 Y16.289 E0.1794
G1 X9.402 Y16.537 E0.03244
G1 X9.229 Y16.603 E0.00924
G1 X8.74 Y16.733 E0.02524
G1 X8.238 Y16.784 E0.02517
G1 X7.733 Y16.756 E0.02523
G1 X7.239 Y16.648 E0.02523
G1 X6.768 Y16.464 E0.02523
G1 X6.285 Y16.175 E0.02808
G1 X5.611 Y15.686 E0.04154
G1 X2.863 Y13.631 E0.17119
G1 X2.266 Y13.171 E0.0376
G1 X1.891 Y12.832 E0.02522
G1 X1.574 Y12.438 E0.02523
G1 X1.324 Y11.999 E0.0252
G1 X1.145 Y11.525 E0.02528
G1 X1.043 Y11.03 E0.02521
G1 X1.036 Y10.304 E0.03622
G1 X1.115 Y9.549 E0.03787
G1 X1.533 Y6.042 E0.1762
G1 X1.628 Y5.325 E0.03608
G1 X1.734 Y4.83 E0.02526
G1 X1.916 Y4.359 E0.02519
G1 X2.17 Y3.922 E0.02522
G1 X2.49 Y3.53 E0.02525
G1 X2.868 Y3.194 E0.02523
G1 F1500 E-6.5
;MESH:?????????.STL
G0 F3600 X4.857 Y4.989
G0 X5.362 Y6.165
G0 X6.737 Y9.818
G0 X7.599 Y10.654
G1 F1500 E6.5
G0 F3600 X8.268 Y10.905
;TYPE:WALL-INNER
G1 F1800 X8.647 Y10.955 E0.01907
G1 X9.032 Y10.939 E0.01922
G1 X9.408 Y10.858 E0.01919
G1 X9.763 Y10.714 E0.01911
G1 X10.089 Y10.513 E0.01911
G1 X10.378 Y10.261 E0.01913
G1 X10.618 Y9.962 E0.01913
G1 X10.814 Y9.615 E0.01988
G1 X10.977 Y9.02 E0.03078
G1 X10.998 Y8.51 E0.02547
G1 X10.934 Y8.127 E0.01937
G1 X10.807 Y7.763 E0.01923
G1 X10.618 Y7.428 E0.01919
G1 X10.378 Y7.129 E0.01913
G1 X10.089 Y6.877 E0.01913
G1 X9.763 Y6.676 E0.01911
G1 X9.408 Y6.532 E0.01911
G1 X9.032 Y6.451 E0.01919
G1 X8.647 Y6.435 E0.01922
G1 X8.268 Y6.485 E0.01907
G1 X7.888 Y6.601 E0.01982
G1 X7.36 Y6.915 E0.03065
G1 X6.991 Y7.266 E0.02541
G1 X6.771 Y7.592 E0.01962
G1 X6.613 Y7.941 E0.01911
G1 X6.515 Y8.312 E0.01914
G1 X6.483 Y8.695 E0.01917
G1 X6.515 Y9.078 E0.01917
G1 X6.613 Y9.449 E0.01914
G1 X6.771 Y9.799 E0.01916
G1 X6.985 Y10.116 E0.01908
G1 X7.25 Y10.394 E0.01916
G1 X7.56 Y10.621 E0.01917
G1 X7.901 Y10.794 E0.01908
G1 X8.268 Y10.905 E0.01913
G0 F3600 X8.247 Y11.002
G0 X12.063 Y11.178
G0 X12.143 Y11.237
G1 F1800 X8.242 Y12.909 E0.21174
G1 X4.845 Y10.368 E0.21164
G1 X5.346 Y6.154 E0.21172
G1 X9.248 Y4.481 E0.21181
G1 X12.645 Y7.022 E0.21164
G1 X12.143 Y11.237 E0.21177
G0 F3600 X12.513 Y11.514
;TYPE:WALL-OUTER
G1 F1800 X8.188 Y13.368 E0.23476
G1 X4.421 Y10.55 E0.2347
G1 X4.976 Y5.877 E0.23478
G1 X9.302 Y4.022 E0.23483
G1 X13.069 Y6.84 E0.2347
G1 X12.513 Y11.514 E0.23483
G0 F3600 X12.33 Y11.592
G0 X12.063 Y11.178
G0 X8.209 Y10.99
G0 X8.353 Y10.513
G1 F1800 X8.665 Y10.554 E0.0157
G1 X8.981 Y10.541 E0.01578
G1 X9.29 Y10.474 E0.01577
G1 X9.582 Y10.356 E0.01571
G1 X9.851 Y10.19 E0.01577
G1 X10.088 Y9.983 E0.0157
G1 X10.286 Y9.737 E0.01575
G1 X10.441 Y9.462 E0.01575
G1 X10.579 Y8.958 E0.02607
G1 X10.597 Y8.535 E0.02112
G1 X10.545 Y8.227 E0.01558
G1 X10.441 Y7.928 E0.01579
G1 X10.286 Y7.653 E0.01575
G1 X10.088 Y7.407 E0.01575
G1 X9.851 Y7.2 E0.0157
G1 X9.582 Y7.034 E0.01577
G1 X9.29 Y6.916 E0.01571
G1 X8.981 Y6.849 E0.01577
G1 X8.665 Y6.836 E0.01578
G1 X8.353 Y6.877 E0.0157
G1 X8.051 Y6.969 E0.01575
G1 X7.603 Y7.236 E0.02602
G1 X7.298 Y7.526 E0.021
G1 X7.121 Y7.788 E0.01577
G1 X6.991 Y8.075 E0.01572
G1 X6.911 Y8.38 E0.01573
G1 X6.884 Y8.695 E0.01577
G1 X6.911 Y9.01 E0.01577
G1 X6.991 Y9.315 E0.01573
G1 X7.121 Y9.603 E0.01576
G1 X7.298 Y9.864 E0.01573
G1 X7.515 Y10.092 E0.0157
G1 X7.77 Y10.279 E0.01578
G1 X8.051 Y10.421 E0.01571
G1 X8.353 Y10.513 E0.01575
G0 F3600 X8.551 Y10.539
G0 X8.629 Y11.347
;TYPE:SKIN
G1 F1800 X9.081 Y11.327 E0.02257
G1 X9.523 Y11.232 E0.02256
G1 X9.94 Y11.063 E0.02245
G1 X10.321 Y10.829 E0.02231
G1 X10.661 Y10.532 E0.02252
G1 X10.942 Y10.182 E0.02239
G1 X11.177 Y9.765 E0.02388
G1 X11.365 Y9.08 E0.03544
G1 X11.39 Y8.485 E0.02971
G1 X11.313 Y8.03 E0.02302
G1 X11.164 Y7.601 E0.02266
G1 X10.942 Y7.209 E0.02248
G1 X10.661 Y6.858 E0.02243
G1 X10.321 Y6.561 E0.02252
G1 X9.94 Y6.327 E0.02231
G1 X9.523 Y6.158 E0.02245
G1 X9.081 Y6.063 E0.02256
G1 X8.629 Y6.043 E0.02257
G1 X8.184 Y6.103 E0.0224
G1 X7.73 Y6.242 E0.02369
G1 X7.123 Y6.603 E0.03523
G1 X6.691 Y7.013 E0.02971
G1 X6.429 Y7.401 E0.02336
G1 X6.244 Y7.81 E0.0224
G1 X6.129 Y8.245 E0.02245
G1 X6.091 Y8.695 E0.02253
G1 X6.129 Y9.145 E0.02253
G1 X6.244 Y9.58 E0.02245
G1 X6.429 Y9.99 E0.02244
G1 X6.68 Y10.361 E0.02235
G1 X6.991 Y10.688 E0.02251
G1 X7.355 Y10.955 E0.02252
G1 X7.755 Y11.157 E0.02236
G1 X8.186 Y11.287 E0.02246
G1 X8.629 Y11.347 E0.0223
G0 F3600 X8.295 Y12.462
G1 F1800 X5.26 Y10.191 E0.18911
G1 X5.707 Y6.424 E0.18925
G1 X9.195 Y4.928 E0.18935
G1 X12.23 Y7.199 E0.18911
G1 X11.782 Y10.967 E0.18931
G1 X8.295 Y12.462 E0.18928
G0 F3600 X5.465 Y9.991
G1 F1800 X5.97 Y10.495 E0.0356
G0 F3600 X6.011 Y9.405
G1 F1800 X5.585 Y8.979 E0.03006
G0 F3600 X5.914 Y8.742
G1 F1800 X5.644 Y8.473 E0.01901
G0 F3600 X5.951 Y8.213
G1 F1800 X5.704 Y7.967 E0.01739
G0 F3600 X6.069 Y7.766
G1 F1800 X5.764 Y7.461 E0.02152
G0 F3600 X6.243 Y7.375
G1 F1800 X5.823 Y6.955 E0.02963
G0 F3600 X5.948 Y6.514
G1 F1800 X6.462 Y7.028 E0.03627
G0 F3600 X6.728 Y6.728
G1 F1800 X6.344 Y6.344 E0.02709
G0 F3600 X6.741 Y6.175
G1 F1800 X7.02 Y6.454 E0.01968
G0 F3600 X7.374 Y6.243
G1 F1800 X7.137 Y6.006 E0.01672
G0 F3600 X7.533 Y5.836
G1 F1800 X7.745 Y6.048 E0.01496
G0 F3600 X7.929 Y5.666
G1 F1800 X8.184 Y5.921 E0.01799
G0 F3600 X8.325 Y5.497
G1 F1800 X8.693 Y5.864 E0.02593
G0 F3600 X8.721 Y5.327
G1 F1800 X9.325 Y5.931 E0.04262
G1 X9.395 Y6.001
G0 F3600 X9.117 Y5.157
G1 F1800 X10.289 Y6.33 E0.08273
G1 X10.359 Y6.4
G0 F3600 X11.12 Y6.595
G1 F1800 X12.013 Y7.487 E0.06297
G0 F3600 X11.952 Y7.993
G1 F1800 X11.121 Y7.161 E0.05867
G1 X11.051 Y7.091
G0 F3600 X11.508 Y8.114
G1 F1800 X11.892 Y8.498 E0.02709
G0 F3600 X11.559 Y8.73
G1 F1800 X11.832 Y9.004 E0.0193
G0 F3600 X11.506 Y9.243
G1 F1800 X11.772 Y9.509 E0.01877
G0 F3600 X11.384 Y9.687
G1 F1800 X11.712 Y10.015 E0.02314
G0 F3600 X11.653 Y10.521
G1 F1800 X11.206 Y10.075 E0.0315
G0 F3600 X10.982 Y10.416
G1 F1800 X11.469 Y10.904 E0.0344
G0 F3600 X11.073 Y11.073
G1 F1800 X10.719 Y10.719 E0.02498
G0 F3600 X10.416 Y10.982
G1 F1800 X10.678 Y11.243 E0.01845
G0 F3600 X10.282 Y11.413
G1 F1800 X10.065 Y11.197 E0.01528
G0 F3600 X9.886 Y11.583
G1 F1800 X9.669 Y11.366 E0.01531
G0 F3600 X9.49 Y11.752
G1 F1800 X9.218 Y11.481 E0.01916
G0 F3600 X9.094 Y11.922
G1 F1800 X8.695 Y11.524 E0.02812
G0 F3600 X8.698 Y12.092
G1 F1800 X8.034 Y11.428 E0.04685
G0 F3600 X8.222 Y12.182
G1 F1800 X5.525 Y9.485 E0.19029
G1 X5.455 Y9.415
;MESH:NONMESH
G0 F600 X5.455 Y9.415 Z0.4
G0 F3600 X7.424 Y10.561
G0 X8.281 Y11.007
G0 X8.305 Y10.826
;TIME_ELAPSED:17.869198
;LAYER:1
M106 S255
;TYPE:WALL-INNER
;MESH:?????????.STL
G1 F2687.9 X8.836 Y10.865 E0.00885
G1 X9.373 Y10.782 E0.00904
G1 X9.883 Y10.544 E0.00936
G1 X10.302 Y10.217 E0.00884
G1 X10.56 Y9.897 E0.00684
G1 X10.793 Y9.419 E0.00884
G1 X10.91 Y8.905 E0.00877
G1 X10.911 Y8.49 E0.0069
G1 X10.793 Y7.971 E0.00885
G1 X10.561 Y7.494 E0.00882
G1 X10.299 Y7.17 E0.00693
G1 X9.741 Y6.758 E0.01153
G1 X9.203 Y6.571 E0.00947
G1 X8.638 Y6.518 E0.00944
G1 X7.958 Y6.665 E0.01157
G1 X7.588 Y6.852 E0.00689
G1 X7.175 Y7.193 E0.00891
G1 X6.839 Y7.642 E0.00933
G1 X6.643 Y8.147 E0.00901
G1 X6.568 Y8.692 E0.00915
G1 X6.603 Y9.089 E0.00663
G1 X6.831 Y9.734 E0.01138
G1 X7.064 Y10.078 E0.00691
G1 X7.455 Y10.443 E0.0089
G1 X7.933 Y10.713 E0.00913
G1 X8.305 Y10.826 E0.00647
G0 F5400 X8.287 Y10.924
G0 X12.142 Y11.237
G0 X12.222 Y11.296
G1 F2687.9 X8.231 Y13.007 E0.07221
G1 X4.754 Y10.407 E0.0722
G1 X5.267 Y6.095 E0.07221
G1 X9.259 Y4.383 E0.07223
G1 X12.736 Y6.984 E0.07221
G1 X12.222 Y11.296 E0.07222
G0 F5400 X12.592 Y11.573
;TYPE:WALL-OUTER
G1 F1791.9 X8.177 Y13.466 E0.07989
G1 X4.33 Y10.589 E0.07989
G1 X4.897 Y5.818 E0.0799
G1 X9.313 Y3.924 E0.07991
G1 X13.16 Y6.802 E0.0799
G1 X12.592 Y11.573 E0.0799
G0 F5400 X12.409 Y11.651
G0 X12.142 Y11.237
G0 X8.342 Y10.928
G0 X8.379 Y10.43
G1 F1791.9 X8.82 Y10.463 E0.00735
G1 X9.256 Y10.395 E0.00734
G1 X9.673 Y10.201 E0.00765
G1 X10.019 Y9.93 E0.00731
G1 X10.22 Y9.681 E0.00532
G1 X10.413 Y9.285 E0.00733
G1 X10.51 Y8.859 E0.00727
G1 X10.511 Y8.534 E0.0054
G1 X10.413 Y8.105 E0.00732
G1 X10.221 Y7.71 E0.0073
G1 X10.02 Y7.461 E0.00532
G1 X9.552 Y7.116 E0.00967
