;FLAVOR:RepRap
;TIME:101
;Filament used: 0.0515647m
;Layer height: 0.1
;MINX:-1.157
;MINY:-1.136
;MINZ:0.3
;MAXX:18.416
;MAXY:18.442
;MAXZ:1.9
;Generated with Cura_SteamEngine 4.12.1
T0
M104 S200
M109 S200
M82 ;absolute extrusion mode
G28 ;Home
G1 Z15.0 F6000 ;Move the platform down 15mm
;Prime the extruder
G92 E0
G1 F200 E3
G92 E0
M83 ;relative extrusion mode
G1 F1500 E-6.5
;LAYER_COUNT:18
;LAYER:0
M107
G0 F3600 X1.949 Y1.498 Z0.3
;TYPE:SKIRT
G1 F1500 E6.5
G1 F1800 X2.443 Y1.069 E0.03264
G1 X3.028 Y0.625 E0.03664
G1 X3.579 Y0.27 E0.0327
G1 X4.163 Y-0.056 E0.03337
G1 X4.739 Y-.33 E0.03182
G1 X5.422 Y-.594 E0.03653
G1 X6.092 Y-.8 E0.03497
G1 X6.642 Y-.933 E0.02823
G1 X7.437 Y-1.063 E0.04019
G1 X8.061 Y-1.118 E0.03125
G1 X8.723 Y-1.136 E0.03304
G1 X9.488 Y-1.098 E0.03821
G1 X10.115 Y-1.022 E0.03151
G1 X10.801 Y-.893 E0.03482
G1 X11.478 Y-.711 E0.03497
G1 X12.094 Y-.501 E0.03247
G1 X12.69 Y-.255 E0.03217
G1 X13.383 Y0.097 E0.03878
G1 X13.934 Y0.426 E0.03202
G1 X14.46 Y0.788 E0.03186
G1 X15.033 Y1.25 E0.03672
G1 X15.537 Y1.717 E0.03428
G1 X15.947 Y2.149 E0.02971
G1 X16.466 Y2.788 E0.04107
G1 X16.797 Y3.26 E0.02876
G1 X17.148 Y3.829 E0.03335
G1 X17.503 Y4.519 E0.03871
G1 X17.745 Y5.087 E0.0308
G1 X17.968 Y5.716 E0.03329
G1 X18.165 Y6.441 E0.03748
G1 X18.287 Y7.054 E0.03118
G1 X18.375 Y7.72 E0.03352
G1 X18.416 Y8.464 E0.03717
G1 X18.406 Y9.13 E0.03323
G1 X18.359 Y9.742 E0.03062
G1 X18.245 Y10.495 E0.038
G1 X18.094 Y11.15 E0.03354
G1 X17.909 Y11.771 E0.03233
G1 X17.659 Y12.433 E0.0353
G1 X17.365 Y13.07 E0.035
G1 X17.065 Y13.621 E0.0313
G1 X16.666 Y14.243 E0.03687
G1 X16.256 Y14.787 E0.03399
G1 X15.857 Y15.255 E0.03068
G1 X15.308 Y15.809 E0.03891
G1 X14.832 Y16.225 E0.03154
G1 X14.296 Y16.636 E0.0337
G1 X13.683 Y17.036 E0.03652
G1 X13.101 Y17.36 E0.03323
G1 X12.535 Y17.63 E0.03129
G1 X11.838 Y17.9 E0.03729
G1 X11.186 Y18.101 E0.03404
G1 X10.595 Y18.243 E0.03032
G1 X9.821 Y18.368 E0.03912
G1 X9.183 Y18.424 E0.03195
G1 X8.526 Y18.442 E0.03279
G1 X7.786 Y18.404 E0.03697
G1 X7.119 Y18.323 E0.03352
G1 X6.469 Y18.202 E0.03299
G1 X5.785 Y18.019 E0.03533
G1 X5.162 Y17.805 E0.03286
G1 X4.57 Y17.561 E0.03195
G1 X3.877 Y17.209 E0.03878
G1 X3.326 Y16.88 E0.03202
G1 X2.792 Y16.511 E0.03238
G1 X2.23 Y16.059 E0.03598
G1 X1.713 Y15.579 E0.0352
G1 X1.312 Y15.155 E0.02912
G1 X0.809 Y14.538 E0.03972
G1 X0.462 Y14.046 E0.03004
G1 X0.094 Y13.448 E0.03503
G1 X-.248 Y12.775 E0.03766
G1 X-.492 Y12.2 E0.03116
G1 X-.71 Y11.582 E0.03269
G1 X-.907 Y10.852 E0.03772
G1 X-1.033 Y10.216 E0.03235
G1 X-1.118 Y9.565 E0.03275
G1 X-1.157 Y8.8 E0.03822
G1 X-1.145 Y8.147 E0.03258
G1 X-1.097 Y7.544 E0.03018
G1 X-.982 Y6.8 E0.03756
G1 X-.832 Y6.145 E0.03352
G1 X-.653 Y5.546 E0.03119
G1 X-.401 Y4.876 E0.03571
G1 X-.105 Y4.237 E0.03513
G1 X0.199 Y3.679 E0.0317
G1 X0.594 Y3.063 E0.03651
G1 X1.01 Y2.511 E0.03448
G1 X1.386 Y2.069 E0.02895
G1 X1.949 Y1.498 E0.04001
G0 F3600 X2.228 Y1.786
G1 F1800 X2.689 Y1.384 E0.03052
G1 X3.252 Y0.956 E0.03528
G1 X3.793 Y0.608 E0.03209
G1 X4.338 Y0.303 E0.03116
G1 X4.895 Y0.039 E0.03075
G1 X5.56 Y-.219 E0.03559
G1 X6.189 Y-.412 E0.03282
G1 X6.721 Y-.54 E0.0273
G1 X7.494 Y-.667 E0.03908
G1 X8.077 Y-.719 E0.0292
G1 X8.716 Y-.736 E0.03189
G1 X9.461 Y-.699 E0.03721
G1 X10.047 Y-.628 E0.02945
G1 X10.707 Y-.504 E0.0335
G1 X11.369 Y-.326 E0.0342
G1 X11.947 Y-.129 E0.03047
G1 X12.52 Y0.107 E0.03092
G1 X13.195 Y0.45 E0.03777
G1 X13.712 Y0.759 E0.03005
G1 X14.218 Y1.107 E0.03064
G1 X14.777 Y1.557 E0.0358
G1 X15.25 Y1.995 E0.03216
G1 X15.646 Y2.413 E0.02873
G1 X16.151 Y3.034 E0.03993
G1 X16.459 Y3.474 E0.0268
G1 X16.799 Y4.023 E0.03222
G1 X17.144 Y4.696 E0.03773
G1 X17.37 Y5.225 E0.0287
G1 X17.585 Y5.832 E0.03213
G1 X17.777 Y6.539 E0.03655
G1 X17.891 Y7.112 E0.02915
G1 X17.977 Y7.754 E0.03232
G1 X18.017 Y8.479 E0.03623
G1 X18.007 Y9.103 E0.03114
G1 X17.962 Y9.694 E0.02957
G1 X17.85 Y10.428 E0.03704
G1 X17.71 Y11.041 E0.03137
G1 X17.531 Y11.64 E0.03119
G1 X17.287 Y12.286 E0.03445
G1 X17.011 Y12.882 E0.03277
G1 X16.722 Y13.415 E0.03025
G1 X16.333 Y14.021 E0.03593
G1 X15.949 Y14.531 E0.03185
G1 X15.564 Y14.983 E0.02962
G1 X15.029 Y15.523 E0.03792
G1 X14.586 Y15.91 E0.02935
G1 X14.067 Y16.308 E0.03263
G1 X13.469 Y16.698 E0.03562
G1 X12.925 Y17.001 E0.03107
G1 X12.377 Y17.262 E0.03028
G1 X11.7 Y17.525 E0.03623
G1 X11.088 Y17.713 E0.03194
G1 X10.518 Y17.851 E0.02926
G1 X9.765 Y17.972 E0.03805
G1 X9.168 Y18.025 E0.0299
G1 X8.532 Y18.042 E0.03174
G1 X7.813 Y18.005 E0.03592
G1 X7.187 Y17.929 E0.03146
G1 X6.56 Y17.812 E0.03182
G1 X5.896 Y17.635 E0.03428
G1 X5.309 Y17.433 E0.03097
G1 X4.74 Y17.199 E0.03069
G1 X4.065 Y16.856 E0.03777
G1 X3.548 Y16.547 E0.03005
G1 X3.035 Y16.194 E0.03107
G1 X2.486 Y15.751 E0.03519
G1 X2.001 Y15.302 E0.03297
G1 X1.613 Y14.892 E0.02816
G1 X1.123 Y14.291 E0.03869
G1 X0.8 Y13.832 E0.028
G1 X0.445 Y13.256 E0.03376
G1 X0.112 Y12.599 E0.03675
G1 X-.117 Y12.062 E0.02913
G1 X-.327 Y11.467 E0.03148
G1 X-.519 Y10.755 E0.03679
G1 X-.637 Y10.159 E0.03031
G1 X-.719 Y9.531 E0.0316
G1 X-.757 Y8.786 E0.03722
G1 X-.746 Y8.175 E0.03049
G1 X-.7 Y7.593 E0.02913
G1 X-.588 Y6.867 E0.03665
G1 X-.447 Y6.254 E0.03138
G1 X-.275 Y5.678 E0.02999
G1 X-0.028 Y5.022 E0.03497
G1 X0.248 Y4.424 E0.03286
G1 X0.541 Y3.885 E0.03061
G1 X0.927 Y3.285 E0.03559
G1 X1.317 Y2.767 E0.03235
G1 X1.68 Y2.34 E0.02796
G1 X2.228 Y1.786 E0.03888
G0 F3600 X2.67 Y1.922
G1 F1800 X3.258 Y1.447 E0.03771
G1 X3.67 Y1.159 E0.02508
G1 X4.184 Y0.84 E0.03018
G1 X4.864 Y0.492 E0.03811
G1 X5.352 Y0.284 E0.02647
G1 X5.93 Y0.079 E0.0306
G1 X6.617 Y-.107 E0.03551
G1 X7.167 Y-.216 E0.02797
G1 X7.778 Y-.297 E0.03075
G1 X8.479 Y-.334 E0.03502
G1 X8.709 Y-.336 E0.01148
G1 X9.433 Y-.3 E0.03617
G1 X9.979 Y-.234 E0.02744
G1 X10.614 Y-.116 E0.03222
G1 X11.26 Y0.058 E0.03338
G1 X11.8 Y0.243 E0.02848
G1 X12.35 Y0.469 E0.02967
G1 X13.007 Y0.803 E0.03677
G1 X13.489 Y1.092 E0.02804
G1 X13.975 Y1.425 E0.02939
G1 X14.521 Y1.864 E0.03495
G1 X14.963 Y2.274 E0.03008
G1 X15.345 Y2.676 E0.02767
G1 X15.836 Y3.281 E0.03887
G1 X16.334 Y4.024 E0.04462
G1 X16.609 Y4.514 E0.02803
G1 X16.88 Y5.082 E0.0314
G1 X17.127 Y5.724 E0.03432
G1 X17.306 Y6.306 E0.03038
G1 X17.43 Y6.816 E0.02619
G1 X17.551 Y7.554 E0.03731
G1 X17.602 Y8.113 E0.028
G1 X17.619 Y8.728 E0.03069
G1 X17.584 Y9.436 E0.03537
G1 X17.518 Y9.995 E0.02808
G1 X17.402 Y10.624 E0.03191
G1 X17.223 Y11.289 E0.03436
G1 X17.041 Y11.82 E0.028
G1 X16.815 Y12.372 E0.02976
G1 X16.483 Y13.025 E0.03655
G1 X16.191 Y13.512 E0.02833
G1 X15.853 Y14.004 E0.02978
G1 X15.402 Y14.561 E0.03576
G1 X15.027 Y14.966 E0.02754
G1 X14.597 Y15.378 E0.02971
G1 X14.01 Y15.853 E0.03767
G1 X13.589 Y16.149 E0.02568
G1 X13.052 Y16.48 E0.03147
G1 X12.404 Y16.81 E0.03628
G1 X11.908 Y17.022 E0.02691
G1 X11.318 Y17.231 E0.03123
G1 X10.642 Y17.413 E0.03493
G1 X10.094 Y17.521 E0.02787
G1 X9.472 Y17.603 E0.0313
G1 X8.763 Y17.64 E0.03542
G1 X8.224 Y17.632 E0.02689
G1 X7.61 Y17.584 E0.03073
G1 X6.877 Y17.469 E0.03702
G1 X6.32 Y17.34 E0.02852
G1 X5.788 Y17.181 E0.0277
G1 X5.142 Y16.937 E0.03445
G1 X4.584 Y16.679 E0.03067
G1 X4.08 Y16.405 E0.02862
G1 X3.485 Y16.023 E0.03528
G1 X3.004 Y15.662 E0.03
G1 X2.586 Y15.307 E0.02736
G1 X2.048 Y14.774 E0.03778
G1 X1.672 Y14.342 E0.02857
G1 X1.298 Y13.854 E0.03067
G1 X0.925 Y13.282 E0.03407
G1 X0.641 Y12.772 E0.02912
G1 X0.379 Y12.222 E0.03039
G1 X0.131 Y11.575 E0.03457
G1 X-0.043 Y11.007 E0.02964
G1 X-.176 Y10.456 E0.02828
G1 X-.295 Y9.725 E0.03695
G1 X-.345 Y9.153 E0.02865
G1 X-.359 Y8.537 E0.03074
G1 X-.323 Y7.85 E0.03432
G1 X-.258 Y7.314 E0.02694
G1 X-.145 Y6.695 E0.03139
G1 X0.031 Y6.037 E0.03398
G1 X0.221 Y5.481 E0.02931
G1 X0.445 Y4.934 E0.02949
G1 X0.778 Y4.279 E0.03666
G1 X1.069 Y3.794 E0.02822
G1 X1.407 Y3.301 E0.02982
G1 X1.845 Y2.758 E0.03481
G1 X2.25 Y2.321 E0.02973
G1 X2.67 Y1.922 E0.0289
G0 F3600 X2.784 Y2.36
G1 F1800 X3.182 Y2.014 E0.02631
G1 X3.702 Y1.618 E0.03261
G1 X4.221 Y1.284 E0.03079
G1 X4.688 Y1.023 E0.02669
G1 X5.208 Y0.775 E0.02874
G1 X5.837 Y0.531 E0.03366
G1 X6.383 Y0.364 E0.02849
G1 X6.879 Y0.244 E0.02546
G1 X7.608 Y0.125 E0.03685
G1 X8.108 Y0.081 E0.02504
G1 X8.701 Y0.064 E0.0296
G1 X9.406 Y0.099 E0.03522
G1 X9.911 Y0.16 E0.02538
G1 X10.52 Y0.273 E0.0309
G1 X11.151 Y0.443 E0.0326
G1 X11.652 Y0.614 E0.02641
G1 X12.18 Y0.831 E0.02848
G1 X12.819 Y1.156 E0.03577
G1 X13.267 Y1.424 E0.02604
G1 X13.733 Y1.744 E0.0282
G1 X14.265 Y2.171 E0.03403
G1 X14.675 Y2.552 E0.02792
G1 X15.044 Y2.939 E0.02668
G1 X15.521 Y3.527 E0.03777
G1 X15.997 Y4.239 E0.04273
G1 X16.25 Y4.691 E0.02584
G1 X16.512 Y5.237 E0.03021
G1 X16.752 Y5.862 E0.0334
G1 X16.918 Y6.404 E0.02828
G1 X17.038 Y6.896 E0.02527
G1 X17.156 Y7.612 E0.0362
G1 X17.202 Y8.129 E0.0259
G1 X17.219 Y8.72 E0.0295
G1 X17.185 Y9.409 E0.03442
G1 X17.123 Y9.928 E0.02608
G1 X17.013 Y10.531 E0.03058
G1 X16.838 Y11.179 E0.03349
G1 X16.669 Y11.674 E0.0261
G1 X16.453 Y12.202 E0.02846
G1 X16.129 Y12.838 E0.03561
G1 X15.859 Y13.29 E0.02627
G1 X15.536 Y13.761 E0.02849
G1 X15.096 Y14.304 E0.03487
G1 X14.748 Y14.68 E0.02556
G1 X14.333 Y15.077 E0.02865
G1 X13.763 Y15.538 E0.03657
G1 X13.042 Y16.022 E0.04332
G1 X12.574 Y16.282 E0.02671
G1 X12.063 Y16.526 E0.02825
G1 X11.423 Y16.775 E0.03426
G1 X10.892 Y16.937 E0.0277
G1 X10.362 Y17.066 E0.02721
G1 X9.652 Y17.18 E0.03588
G1 X9.137 Y17.225 E0.02579
G1 X8.546 Y17.242 E0.0295
G1 X7.866 Y17.207 E0.03397
G1 X7.324 Y17.141 E0.02724
G1 X6.743 Y17.033 E0.02948
G1 X6.116 Y16.866 E0.03237
G1 X5.603 Y16.689 E0.02707
G1 X5.08 Y16.475 E0.02819
G1 X4.441 Y16.15 E0.03577
G1 X3.993 Y15.882 E0.02604
G1 X3.521 Y15.558 E0.02856
G1 X2.997 Y15.136 E0.03357
G1 X2.577 Y14.747 E0.02856
G1 X2.216 Y14.366 E0.02619
G1 X1.753 Y13.797 E0.0366
G1 X1.262 Y13.067 E0.04389
G1 X1 Y12.596 E0.02689
G1 X0.748 Y12.066 E0.02928
G1 X0.506 Y11.438 E0.03358
G1 X0.345 Y10.91 E0.02754
G1 X0.216 Y10.379 E0.02726
G1 X0.101 Y9.668 E0.03593
G1 X0.055 Y9.14 E0.02644
G1 X0.041 Y8.547 E0.02959
G1 X0.076 Y7.877 E0.03347
G1 X0.201 Y7.002 E0.0441
G1 X0.322 Y6.473 E0.02707
G1 X0.48 Y5.943 E0.02759
G1 X0.716 Y5.316 E0.03342
G1 X0.955 Y4.799 E0.02842
G1 X1.227 Y4.298 E0.02844
G1 X1.592 Y3.73 E0.03368
G1 X1.931 Y3.279 E0.02815
G1 X2.268 Y2.882 E0.02598
G1 X2.784 Y2.36 E0.03662
G0 F3600 X3.062 Y2.648
G1 F1800 X3.751 Y2.077 E0.04464
G1 X4.434 Y1.622 E0.04094
G1 X5.214 Y1.211 E0.04399
G1 X5.976 Y0.907 E0.04093
G1 X6.481 Y0.752 E0.02635
G1 X7.102 Y0.607 E0.03182
G1 X7.664 Y0.521 E0.02836
G1 X8.51 Y0.465 E0.0423
G1 X8.694 Y0.464 E0.00918
G1 X9.379 Y0.498 E0.03422
G1 X10.22 Y0.62 E0.0424
G1 X11.042 Y0.828 E0.0423
G1 X11.826 Y1.113 E0.04162
G1 X12.3 Y1.334 E0.02609
G1 X12.77 Y1.588 E0.02665
G1 X13.331 Y1.948 E0.03326
G1 X13.745 Y2.259 E0.02583
G1 X14.13 Y2.585 E0.02517
G1 X14.632 Y3.082 E0.03524
G1 X15.206 Y3.773 E0.04482
G1 X15.659 Y4.453 E0.04076
G1 X16.067 Y5.225 E0.04356
G1 X16.377 Y6.001 E0.04169
G1 X16.53 Y6.501 E0.02609
G1 X16.673 Y7.108 E0.03111
G1 X16.76 Y7.669 E0.02832
G1 X16.818 Y8.526 E0.04285
G1 X16.786 Y9.382 E0.04274
G1 X16.667 Y10.227 E0.04257
G1 X16.454 Y11.07 E0.04338
G1 X16.171 Y11.846 E0.04121
G1 X15.951 Y12.32 E0.02607
G1 X15.693 Y12.797 E0.02706
G1 X15.335 Y13.354 E0.03303
G1 X15.029 Y13.761 E0.0254
G1 X14.683 Y14.168 E0.02665
G1 X14.192 Y14.664 E0.03482
G1 X13.517 Y15.223 E0.04372
G1 X12.828 Y15.683 E0.04133
G1 X12.052 Y16.091 E0.04374
G1 X11.284 Y16.399 E0.04128
G1 X10.794 Y16.549 E0.02557
G1 X10.284 Y16.674 E0.0262
G1 X9.595 Y16.784 E0.03481
G1 X8.732 Y16.841 E0.04315
G1 X7.893 Y16.808 E0.04189
G1 X7.393 Y16.747 E0.02513
G1 X6.834 Y16.644 E0.02836
G1 X6.226 Y16.481 E0.0314
G1 X5.75 Y16.317 E0.02512
G1 X5.25 Y16.113 E0.02694
G1 X4.629 Y15.796 E0.03478
G1 X3.929 Y15.358 E0.0412
G1 X3.515 Y15.047 E0.02583
G1 X3.129 Y14.72 E0.02524
G1 X2.624 Y14.219 E0.03549
G1 X2.067 Y13.55 E0.04343
G1 X1.6 Y12.853 E0.04186
G1 X1.19 Y12.073 E0.04396
G1 X0.882 Y11.3 E0.04151
G1 X0.733 Y10.812 E0.02546
G1 X0.609 Y10.301 E0.02623
G1 X0.497 Y9.612 E0.03483
G1 X0.442 Y8.745 E0.04334
G1 X0.475 Y7.904 E0.04199
G1 X0.595 Y7.07 E0.04204
G1 X0.8 Y6.256 E0.04188
G1 X0.965 Y5.774 E0.02542
G1 X1.169 Y5.274 E0.02694
G1 X1.485 Y4.654 E0.03472
G1 X1.925 Y3.952 E0.04133
G1 X2.238 Y3.535 E0.02601
G1 X2.563 Y3.153 E0.02502
G1 X3.062 Y2.648 E0.03542
G1 F1500 E-6.5
;MESH:??????.STL
G0 F3600 X4.787 Y4.494
G0 X5.695 Y5.401
G0 X9.529 Y12.858
G1 F1500 E6.5
G0 F3600 X9.549 Y12.955
;TYPE:WALL-INNER
G1 F1800 X8.63 Y13.052 E0.0461
G1 X7.71 Y12.955 E0.04615
G1 X6.834 Y12.67 E0.04596
G1 X6.046 Y12.213 E0.04545
G1 X5.364 Y11.6 E0.04575
G1 X4.819 Y10.851 E0.04621
G1 X4.613 Y10.449 E0.02254
G1 X4.328 Y9.574 E0.04591
G1 X4.255 Y9.116 E0.02314
G1 X4.255 Y8.189 E0.04625
G1 X4.444 Y7.301 E0.04529
G1 X4.613 Y6.857 E0.0237
G1 X5.07 Y6.069 E0.04545
G1 X5.682 Y5.387 E0.04572
G1 X6.432 Y4.842 E0.04625
G1 X6.834 Y4.636 E0.02254
G1 X7.709 Y4.351 E0.04591
G1 X8.166 Y4.278 E0.02309
G1 X9.094 Y4.278 E0.0463
G1 X9.982 Y4.467 E0.04529
G1 X10.426 Y4.636 E0.0237
G1 X11.214 Y5.093 E0.04545
G1 X11.896 Y5.705 E0.04572
G1 X12.441 Y6.455 E0.04625
G1 X12.647 Y6.857 E0.02254
G1 X12.932 Y7.732 E0.04591
G1 X13.005 Y8.189 E0.02309
G1 X13.005 Y9.116 E0.04625
G1 X12.816 Y10.005 E0.04534
G1 X12.647 Y10.449 E0.0237
G1 X12.189 Y11.238 E0.04551
G1 X11.578 Y11.919 E0.04565
G1 X10.828 Y12.464 E0.04625
G1 X10.426 Y12.67 E0.02254
G1 X9.549 Y12.955 E0.04601
G0 F3600 X9.131 Y13.426
;TYPE:WALL-OUTER
G1 F1800 X8.63 Y13.452 E0.02503
G1 X8.129 Y13.426 E0.02503
G1 X7.627 Y13.347 E0.02535
G1 X7.148 Y13.218 E0.02475
G1 X6.676 Y13.038 E0.0252
G1 X6.233 Y12.811 E0.02483
G1 X5.811 Y12.537 E0.0251
G1 X5.415 Y12.217 E0.0254
G1 X5.061 Y11.862 E0.02501
G1 X4.75 Y11.478 E0.02465
G1 X4.472 Y11.05 E0.02546
G1 X4.245 Y10.607 E0.02483
G1 X4.065 Y10.135 E0.0252
G1 X3.936 Y9.655 E0.0248
G1 X3.856 Y9.153 E0.02536
G1 X3.831 Y8.653 E0.02498
G1 X3.856 Y8.152 E0.02503
G1 X3.936 Y7.65 E0.02536
G1 X4.065 Y7.171 E0.02475
G1 X4.245 Y6.699 E0.0252
G1 X4.472 Y6.256 E0.02483
G1 X4.746 Y5.834 E0.0251
G1 X5.07 Y5.433 E0.02572
G1 X5.41 Y5.093 E0.02399
G1 X5.811 Y4.769 E0.02572
G1 X6.233 Y4.495 E0.0251
G1 X6.676 Y4.268 E0.02483
G1 X7.148 Y4.088 E0.0252
G1 X7.627 Y3.959 E0.02475
G1 X8.129 Y3.879 E0.02536
G1 X8.63 Y3.854 E0.02503
G1 X9.131 Y3.879 E0.02503
G1 X9.632 Y3.959 E0.02531
G1 X10.112 Y4.088 E0.0248
G1 X10.584 Y4.268 E0.0252
G1 X11.027 Y4.495 E0.02483
G1 X11.449 Y4.769 E0.0251
G1 X11.85 Y5.093 E0.02572
G1 X12.19 Y5.433 E0.02399
G1 X12.514 Y5.834 E0.02572
G1 X12.788 Y6.256 E0.0251
G1 X13.015 Y6.699 E0.02483
G1 X13.195 Y7.171 E0.0252
G1 X13.324 Y7.65 E0.02475
G1 X13.404 Y8.152 E0.02536
G1 X13.429 Y8.653 E0.02503
G1 X13.404 Y9.153 E0.02498
G1 X13.324 Y9.655 E0.02536
G1 X13.195 Y10.135 E0.0248
G1 X13.015 Y10.607 E0.0252
G1 X12.788 Y11.05 E0.02483
G1 X12.51 Y11.478 E0.02546
G1 X12.199 Y11.862 E0.02465
G1 X11.845 Y12.217 E0.02501
G1 X11.449 Y12.537 E0.0254
G1 X11.027 Y12.811 E0.0251
G1 X10.584 Y13.038 E0.02483
G1 X10.112 Y13.218 E0.0252
G1 X9.632 Y13.347 E0.0248
G1 X9.131 Y13.426 E0.0253
G0 F3600 X8.931 Y13.436
G0 X8.63 Y12.66
;TYPE:SKIN
G1 F1800 X7.792 Y12.571 E0.04204
G1 X6.99 Y12.31 E0.04208
G1 X6.28 Y11.898 E0.04095
G1 X5.658 Y11.339 E0.04172
G1 X5.149 Y10.641 E0.0431
G1 X4.973 Y10.296 E0.01932
G1 X4.71 Y9.485 E0.04254
G1 X4.645 Y9.081 E0.02041
G1 X4.645 Y8.232 E0.04236
G1 X4.82 Y7.406 E0.04212
G1 X4.968 Y7.021 E0.02058
G1 X5.385 Y6.303 E0.04142
G1 X5.943 Y5.681 E0.04169
G1 X6.642 Y5.172 E0.04314
G1 X6.983 Y4.998 E0.0191
G1 X7.803 Y4.731 E0.04302
G1 X8.196 Y4.668 E0.01986
G1 X9.051 Y4.668 E0.04266
G1 X9.877 Y4.843 E0.04212
G1 X10.26 Y4.99 E0.02047
G1 X10.98 Y5.408 E0.04154
G1 X11.602 Y5.966 E0.04169
G1 X12.111 Y6.665 E0.04314
G1 X12.285 Y7.006 E0.0191
G1 X12.552 Y7.826 E0.04302
G1 X12.615 Y8.219 E0.01986
G1 X12.615 Y9.073 E0.04261
G1 X12.44 Y9.9 E0.04217
G1 X12.293 Y10.283 E0.02047
G1 X11.874 Y11.004 E0.0416
G1 X11.317 Y11.625 E0.04162
G1 X10.618 Y12.134 E0.04314
G1 X10.278 Y12.308 E0.01905
G1 X9.467 Y12.571 E0.04254
G1 X8.63 Y12.66 E0.04199
G0 F3600 X5.143 Y10.234
G1 F1800 X7.036 Y12.127 E0.13356
G1 X7.106 Y12.197
G0 F3600 X7.871 Y12.396
G1 F1800 X4.877 Y9.403 E0.21121
G0 F3600 X4.824 Y8.784
G1 F1800 X8.505 Y12.464 E0.25968
G0 F3600 X9.039 Y12.433
G1 F1800 X4.83 Y8.224 E0.29697
G0 F3600 X4.929 Y7.757
