;FLAVOR:RepRap
;TIME:15
;Filament used: 0.0185751m
;Layer height: 0.1
;MINX:-0.801
;MINY:-1.146
;MINZ:0.3
;MAXX:20.178
;MAXY:19.833
;MAXZ:0.3
;Generated with Cura_SteamEngine 4.12.1
T0
M104 S200
M109 S200
M82 ;absolute extrusion mode
G28 ;Home
G1 Z15.0 F6000 ;Move the platform down 15mm
;Prime the extruder
G92 E0
G1 F200 E3
G92 E0
M83 ;relative extrusion mode
G1 F1500 E-6.5
;LAYER_COUNT:26
;LAYER:0
M107
G0 F3600 X2.093 Y2.113 Z0.3
;TYPE:SKIRT
G1 F1500 E6.5
G1 F1800 X2.307 Y1.892 E0.01535
G1 X2.753 Y1.485 E0.03012
G1 X2.904 Y1.364 E0.00965
G1 X3.313 Y1.07 E0.02513
G1 X3.581 Y0.898 E0.01589
G1 X4.141 Y0.59 E0.03189
G1 X4.576 Y0.391 E0.02387
G1 X5.248 Y0.11 E0.03634
G1 X5.87 Y-.149 E0.03361
G1 X6.959 Y-.597 E0.05875
G1 X7.385 Y-.757 E0.0227
G1 X7.9 Y-.914 E0.02686
G1 X8.145 Y-.974 E0.01258
G1 X8.689 Y-1.075 E0.0276
G1 X8.936 Y-1.106 E0.01242
G1 X9.456 Y-1.142 E0.02601
G1 X9.703 Y-1.146 E0.01232
G1 X10.288 Y-1.12 E0.02921
G1 X10.561 Y-1.091 E0.0137
G1 X11.142 Y-.993 E0.0294
G1 X11.404 Y-.932 E0.01342
G1 X11.912 Y-.784 E0.0264
G1 X12.398 Y-.606 E0.02582
G1 X13.376 Y-.204 E0.05275
G1 X13.895 Y0.013 E0.02807
G1 X14.769 Y0.376 E0.04722
G1 X15.18 Y0.56 E0.02247
G1 X15.688 Y0.83 E0.0287
G1 X15.901 Y0.96 E0.01245
G1 X16.335 Y1.259 E0.02629
G1 X16.542 Y1.419 E0.01305
G1 X16.972 Y1.794 E0.02846
G1 X17.149 Y1.968 E0.01238
G1 X17.507 Y2.362 E0.02656
G1 X17.896 Y2.871 E0.03196
G1 X18.03 Y3.07 E0.01197
G1 X18.306 Y3.534 E0.02693
G1 X18.581 Y4.088 E0.03086
G1 X18.644 Y4.234 E0.00793
G1 X19.092 Y5.303 E0.05783
G1 X19.284 Y5.78 E0.02565
G1 X19.368 Y5.976 E0.01064
G1 X19.629 Y6.611 E0.03425
G1 X19.788 Y7.033 E0.0225
G1 X19.947 Y7.554 E0.02718
G1 X20.008 Y7.803 E0.01279
G1 X20.109 Y8.347 E0.0276
G1 X20.138 Y8.578 E0.01162
G1 X20.174 Y9.104 E0.0263
G1 X20.178 Y9.371 E0.01332
G1 X20.156 Y9.914 E0.02711
G1 X20.061 Y10.62 E0.03554
G1 X19.899 Y11.301 E0.03492
G1 X19.726 Y11.826 E0.02758
G1 X19.64 Y12.049 E0.01192
G1 X19.225 Y13.061 E0.05457
G1 X19.019 Y13.544 E0.0262
G1 X18.932 Y13.763 E0.01176
G1 X18.634 Y14.478 E0.03865
G1 X18.441 Y14.898 E0.02306
G1 X18.205 Y15.34 E0.025
G1 X18.109 Y15.499 E0.00927
G1 X17.802 Y15.947 E0.0271
G1 X17.594 Y16.217 E0.017
G1 X17.198 Y16.67 E0.03002
G1 X16.693 Y17.143 E0.03452
G1 X16.474 Y17.322 E0.01411
G1 X15.983 Y17.673 E0.03011
G1 X15.761 Y17.812 E0.01307
G1 X15.274 Y18.079 E0.02771
G1 X14.807 Y18.296 E0.02569
G1 X13.722 Y18.75 E0.05868
G1 X13.218 Y18.953 E0.02711
G1 X13.042 Y19.029 E0.00956
G1 X12.314 Y19.328 E0.03926
G1 X11.626 Y19.558 E0.03619
G1 X11.313 Y19.639 E0.01613
G1 X10.739 Y19.751 E0.02918
G1 X10.429 Y19.792 E0.0156
G1 X9.8 Y19.833 E0.03145
G1 X9.57 Y19.833 E0.01147
G1 X9.057 Y19.805 E0.02563
G1 X8.871 Y19.785 E0.00933
G1 X8.347 Y19.7 E0.02648
G1 X8.017 Y19.627 E0.01686
G1 X7.489 Y19.478 E0.02737
G1 X6.937 Y19.276 E0.02933
G1 X6.043 Y18.901 E0.04837
G1 X4.661 Y18.335 E0.07451
G1 X4.086 Y18.07 E0.03159
G1 X3.485 Y17.734 E0.03435
G1 X2.817 Y17.251 E0.04113
G1 X2.341 Y16.831 E0.03167
G1 X1.849 Y16.3 E0.03612
G1 X1.718 Y16.138 E0.01039
G1 X1.405 Y15.704 E0.0267
G1 X1.237 Y15.441 E0.01557
G1 X0.933 Y14.889 E0.03144
G1 X0.734 Y14.453 E0.02391
G1 X0.294 Y13.401 E0.05689
G1 X0.041 Y12.787 E0.03313
G1 X-.239 Y12.106 E0.03673
G1 X-.415 Y11.639 E0.0249
G1 X-.588 Y11.068 E0.02977
G1 X-.717 Y10.414 E0.03326
G1 X-.76 Y10.087 E0.01645
G1 X-.801 Y9.441 E0.03229
G1 X-.775 Y8.735 E0.03525
G1 X-.754 Y8.53 E0.01028
G1 X-.667 Y7.988 E0.02739
G1 X-.601 Y7.688 E0.01532
G1 X-.438 Y7.119 E0.02953
G1 X-.26 Y6.632 E0.02587
G1 X0.115 Y5.719 E0.04924
G1 X0.299 Y5.288 E0.02338
G1 X0.687 Y4.35 E0.05064
G1 X0.907 Y3.856 E0.02698
G1 X1.189 Y3.322 E0.03013
G1 X1.309 Y3.126 E0.01147
G1 X1.594 Y2.712 E0.02508
G1 X1.732 Y2.532 E0.01132
G1 X2.093 Y2.113 E0.02759
G0 F3600 X2.38 Y2.391
G1 F1800 X2.594 Y2.17 E0.01535
G1 X3.004 Y1.797 E0.02765
G1 X3.529 Y1.407 E0.03263
G1 X3.797 Y1.235 E0.01589
G1 X4.311 Y0.952 E0.02927
G1 X4.731 Y0.759 E0.02306
G1 X5.3 Y0.52 E0.03079
G1 X6.027 Y0.219 E0.03926
G1 X7.111 Y-.227 E0.05848
G1 X7.995 Y-.526 E0.04656
G1 X8.24 Y-.586 E0.01258
G1 X8.739 Y-.678 E0.02531
G1 X9.463 Y-.742 E0.03626
G1 X9.71 Y-.746 E0.01232
G1 X10.246 Y-.722 E0.02677
G1 X10.519 Y-.693 E0.0137
G1 X11.052 Y-.603 E0.02697
G1 X11.779 Y-.407 E0.03757
G1 X12.247 Y-.236 E0.02486
G1 X13.218 Y0.163 E0.05237
G1 X13.748 Y0.385 E0.02867
G1 X14.615 Y0.745 E0.04684
G1 X15.013 Y0.924 E0.02177
G1 X15.479 Y1.171 E0.02631
G1 X16.091 Y1.576 E0.03661
G1 X16.298 Y1.736 E0.01305
G1 X16.692 Y2.079 E0.02606
G1 X17.197 Y2.614 E0.0367
G1 X17.565 Y3.094 E0.03018
G1 X17.952 Y3.719 E0.03668
G1 X18.217 Y4.255 E0.02983
G1 X18.275 Y4.388 E0.00724
G1 X18.721 Y5.452 E0.05756
G1 X18.925 Y5.958 E0.02722
G1 X18.998 Y6.128 E0.00923
G1 X19.259 Y6.763 E0.03425
G1 X19.559 Y7.649 E0.04667
G1 X19.62 Y7.898 E0.01279
G1 X19.712 Y8.397 E0.02531
G1 X19.775 Y9.11 E0.03571
G1 X19.758 Y9.875 E0.03818
G1 X19.669 Y10.54 E0.03347
G1 X19.516 Y11.183 E0.03298
G1 X19.352 Y11.684 E0.0263
G1 X19.27 Y11.897 E0.01139
G1 X18.858 Y12.904 E0.05428
G1 X18.646 Y13.401 E0.02696
G1 X18.562 Y13.609 E0.01119
G1 X18.264 Y14.324 E0.03865
G1 X17.863 Y15.133 E0.04505
G1 X17.486 Y15.703 E0.03409
G1 X17.278 Y15.973 E0.017
G1 X16.915 Y16.388 E0.02751
G1 X16.44 Y16.833 E0.03247
G1 X16.221 Y17.012 E0.01411
G1 X15.771 Y17.334 E0.02761
G1 X15.549 Y17.473 E0.01307
G1 X15.103 Y17.718 E0.02539
G1 X14.653 Y17.927 E0.02475
G1 X13.573 Y18.379 E0.05841
G1 X13.073 Y18.58 E0.02689
G1 X12.89 Y18.659 E0.00994
G1 X12.162 Y18.958 E0.03926
G1 X11.525 Y19.171 E0.03351
G1 X11.212 Y19.252 E0.01613
G1 X10.687 Y19.354 E0.02668
G1 X10.377 Y19.395 E0.0156
G1 X9.8 Y19.433 E0.02885
G1 X9.1 Y19.408 E0.03495
G1 X8.434 Y19.309 E0.03359
G1 X8.104 Y19.236 E0.01686
G1 X7.619 Y19.099 E0.02514
G1 X7.092 Y18.908 E0.02797
G1 X6.154 Y18.514 E0.05076
G1 X4.821 Y17.968 E0.07187
G1 X4.273 Y17.716 E0.03009
G1 X3.701 Y17.397 E0.03268
G1 X3.061 Y16.934 E0.03941
G1 X2.624 Y16.549 E0.02906
G1 X2.16 Y16.049 E0.03403
G1 X1.742 Y15.489 E0.03486
G1 X1.574 Y15.226 E0.01557
G1 X1.296 Y14.719 E0.02885
G1 X1.103 Y14.299 E0.02306
G1 X0.665 Y13.252 E0.05662
G1 X0.409 Y12.629 E0.0336
G1 X0.131 Y11.954 E0.03642
G1 X-0.04 Y11.5 E0.0242
G1 X-.198 Y10.976 E0.02731
G1 X-.32 Y10.362 E0.03123
G1 X-.363 Y10.035 E0.01645
G1 X-.401 Y9.442 E0.02965
G1 X-.377 Y8.776 E0.03325
G1 X-.356 Y8.571 E0.01028
G1 X-.276 Y8.074 E0.02511
G1 X-.21 Y7.774 E0.01532
G1 X-0.061 Y7.252 E0.02708
G1 X0.11 Y6.784 E0.02486
G1 X0.483 Y5.876 E0.04897
G1 X0.667 Y5.445 E0.02338
G1 X1.056 Y4.503 E0.05085
G1 X1.272 Y4.02 E0.0264
G1 X1.53 Y3.531 E0.02758
G1 X1.911 Y2.955 E0.03445
G1 X2.049 Y2.775 E0.01132
G1 X2.38 Y2.391 E0.02529
G0 F3600 X2.667 Y2.669
G1 F1800 X2.881 Y2.448 E0.01535
G1 X3.254 Y2.11 E0.02511
G1 X3.746 Y1.744 E0.03059
G1 X4.014 Y1.572 E0.01589
G1 X4.48 Y1.314 E0.02657
G1 X4.886 Y1.128 E0.02228
G1 X5.541 Y0.854 E0.03542
G1 X6.184 Y0.586 E0.03475
G1 X7.263 Y0.143 E0.05819
G1 X8.091 Y-.137 E0.04361
G1 X8.789 Y-.281 E0.03556
G1 X9.469 Y-.342 E0.03406
G1 X9.716 Y-.346 E0.01232
G1 X10.477 Y-.296 E0.03805
G1 X11.223 Y-.153 E0.0379
G1 X11.907 Y0.063 E0.03579
G1 X12.095 Y0.134 E0.01003
G1 X13.061 Y0.531 E0.05211
G1 X13.601 Y0.757 E0.0292
G1 X14.461 Y1.114 E0.04646
G1 X15.271 Y1.513 E0.04505
G1 X15.846 Y1.892 E0.03436
G1 X16.411 Y2.365 E0.03676
G1 X16.887 Y2.866 E0.03448
G1 X17.233 Y3.318 E0.0284
G1 X17.597 Y3.904 E0.03442
G1 X17.853 Y4.421 E0.02878
G1 X17.906 Y4.543 E0.00664
G1 X18.35 Y5.602 E0.05729
G1 X18.544 Y6.084 E0.02592
G1 X18.628 Y6.28 E0.01064
G1 X18.889 Y6.915 E0.03425
G1 X19.17 Y7.744 E0.04367
G1 X19.315 Y8.447 E0.03581
G1 X19.375 Y9.116 E0.03351
G1 X19.36 Y9.836 E0.03593
G1 X19.277 Y10.461 E0.03146
G1 X19.134 Y11.065 E0.03097
G1 X18.978 Y11.542 E0.02504
G1 X18.899 Y11.746 E0.01091
G1 X18.49 Y12.747 E0.05395
G1 X18.277 Y13.245 E0.02702
G1 X18.193 Y13.455 E0.01128
G1 X17.895 Y14.17 E0.03865
G1 X17.52 Y14.926 E0.0421
G1 X17.169 Y15.459 E0.03184
G1 X16.961 Y15.729 E0.017
G1 X16.631 Y16.106 E0.025
G1 X16.186 Y16.523 E0.03043
G1 X15.967 Y16.702 E0.01411
G1 X15.559 Y16.995 E0.02506
G1 X14.931 Y17.357 E0.03616
G1 X14.498 Y17.558 E0.02382
G1 X13.423 Y18.008 E0.05814
G1 X12.927 Y18.208 E0.02668
G1 X12.738 Y18.289 E0.01026
G1 X12.01 Y18.588 E0.03926
G1 X11.425 Y18.783 E0.03076
G1 X10.634 Y18.957 E0.04041
G1 X10.324 Y18.998 E0.0156
G1 X9.8 Y19.033 E0.0262
G1 X9.142 Y19.01 E0.03285
G1 X8.52 Y18.919 E0.03136
G1 X7.75 Y18.721 E0.03967
G1 X7.247 Y18.539 E0.02669
G1 X6.309 Y18.145 E0.05076
G1 X4.98 Y17.601 E0.07164
G1 X4.46 Y17.363 E0.02853
G1 X3.916 Y17.06 E0.03107
G1 X3.305 Y16.617 E0.03765
G1 X2.908 Y16.267 E0.0264
G1 X2.471 Y15.797 E0.03202
G1 X2.079 Y15.273 E0.03265
G1 X1.911 Y15.01 E0.01557
G1 X1.658 Y14.55 E0.02619
G1 X1.472 Y14.144 E0.02228
G1 X1.036 Y13.103 E0.05631
G1 X0.776 Y12.47 E0.03414
G1 X0.502 Y11.802 E0.03602
G1 X0.191 Y10.885 E0.04831
G1 X0.076 Y10.31 E0.02925
G1 X0.033 Y9.983 E0.01645
G1 X-0.001 Y9.444 E0.02694
G1 X0.021 Y8.816 E0.03135
G1 X0.114 Y8.16 E0.03306
G1 X0.316 Y7.385 E0.03996
G1 X0.48 Y6.936 E0.02385
G1 X0.851 Y6.033 E0.0487
G1 X1.035 Y5.602 E0.02338
G1 X1.476 Y4.539 E0.05742
G1 X1.636 Y4.184 E0.01943
G1 X1.872 Y3.739 E0.02513
G1 X2.229 Y3.198 E0.03234
G1 X2.667 Y2.669 E0.03426
G0 F3600 X3.169 Y2.727
G1 F1800 X3.655 Y2.301 E0.03224
G1 X4.23 Y1.908 E0.03475
G1 X4.911 Y1.555 E0.03827
G1 X5.041 Y1.497 E0.0071
G1 X5.687 Y1.226 E0.03495
G1 X6.341 Y0.954 E0.03534
G1 X7.414 Y0.513 E0.05788
G1 X8.186 Y0.251 E0.04067
G1 X8.839 Y0.116 E0.03327
G1 X9.476 Y0.057 E0.03192
G1 X9.723 Y0.053 E0.01232
G1 X10.434 Y0.102 E0.03556
G1 X11.132 Y0.237 E0.03547
G1 X11.774 Y0.44 E0.03359
G1 X11.943 Y0.504 E0.00902
G1 X12.903 Y0.898 E0.05177
G1 X13.453 Y1.128 E0.02974
G1 X14.308 Y1.484 E0.04621
G1 X15.062 Y1.854 E0.0419
G1 X15.602 Y2.209 E0.03224
G1 X16.131 Y2.65 E0.03436
G1 X16.576 Y3.119 E0.03225
G1 X16.901 Y3.541 E0.02657
G1 X17.242 Y4.088 E0.03216
G1 X17.49 Y4.588 E0.02784
G1 X17.538 Y4.697 E0.00594
G1 X17.979 Y5.752 E0.05705
G1 X18.194 Y6.285 E0.02867
G1 X18.258 Y6.432 E0.008
G1 X18.519 Y7.067 E0.03425
G1 X18.782 Y7.839 E0.04069
G1 X18.918 Y8.497 E0.03352
G1 X18.975 Y9.122 E0.03131
G1 X18.962 Y9.796 E0.03363
G1 X18.885 Y10.381 E0.02944
G1 X18.752 Y10.947 E0.02901
G1 X18.562 Y11.512 E0.02974
G1 X18.122 Y12.59 E0.05809
G1 X17.903 Y13.102 E0.02778
G1 X17.824 Y13.301 E0.01068
G1 X17.526 Y14.016 E0.03865
G1 X17.178 Y14.72 E0.03918
G1 X16.852 Y15.215 E0.02957
G1 X16.347 Y15.824 E0.03947
G1 X15.933 Y16.213 E0.02834
G1 X15.346 Y16.656 E0.03669
G1 X14.759 Y16.995 E0.03382
G1 X14.343 Y17.189 E0.0229
G1 X13.274 Y17.637 E0.05783
G1 X12.782 Y17.835 E0.02646
G1 X12.586 Y17.919 E0.01064
G1 X11.858 Y18.218 E0.03926
G1 X11.325 Y18.396 E0.02804
G1 X10.582 Y18.561 E0.03797
G1 X9.8 Y18.633 E0.03918
G1 X9.185 Y18.612 E0.0307
G1 X8.606 Y18.528 E0.02919
G1 X7.88 Y18.343 E0.03738
G1 X7.402 Y18.17 E0.02536
G1 X6.497 Y17.79 E0.04897
G1 X5.139 Y17.234 E0.07321
G1 X4.647 Y17.009 E0.02699
G1 X4.132 Y16.723 E0.02939
G1 X3.549 Y16.3 E0.03594
G1 X3.028 Y15.82 E0.03534
G1 X2.651 Y15.384 E0.02876
G1 X2.248 Y14.795 E0.03561
G1 X1.899 Y14.122 E0.03782
G1 X1.841 Y13.99 E0.00719
G1 X1.407 Y12.954 E0.05604
G1 X1.143 Y12.311 E0.03468
G1 X0.872 Y11.651 E0.0356
G1 X0.58 Y10.793 E0.04522
G1 X0.473 Y10.257 E0.02727
G1 X0.399 Y9.446 E0.04063
G1 X0.419 Y8.857 E0.0294
G1 X0.505 Y8.245 E0.03083
G1 X0.693 Y7.519 E0.03741
G1 X0.85 Y7.088 E0.02288
G1 X1.219 Y6.191 E0.04839
G1 X1.403 Y5.76 E0.02338
G1 X1.796 Y4.808 E0.05138
G1 X2.001 Y4.349 E0.02508
G1 X2.333 Y3.752 E0.03408
G1 X2.684 Y3.262 E0.03007
G1 X3.169 Y2.727 E0.03603
G0 F3600 X3.242 Y3.226
G1 F1800 X3.754 Y2.734 E0.03543
G1 X4.178 Y2.417 E0.02641
G1 X4.819 Y2.039 E0.03713
G1 X5.196 Y1.866 E0.02069
G1 X5.834 Y1.599 E0.0345
G1 X6.03 Y1.522 E0.01051
G1 X6.54 Y1.305 E0.02765
G1 X7.566 Y0.884 E0.05533
G1 X8.281 Y0.64 E0.03769
G1 X8.889 Y0.513 E0.03099
G1 X9.482 Y0.457 E0.02972
G1 X9.729 Y0.453 E0.01232
G1 X10.392 Y0.5 E0.03316
G1 X11.042 Y0.626 E0.03303
G1 X11.641 Y0.817 E0.03137
G1 X11.791 Y0.874 E0.00801
G1 X12.745 Y1.266 E0.05146
G1 X13.306 Y1.5 E0.03033
G1 X14.154 Y1.853 E0.04583
G1 X14.854 Y2.196 E0.03889
G1 X15.357 Y2.525 E0.02999
G1 X15.85 Y2.935 E0.03199
G1 X16.266 Y3.371 E0.03006
G1 X16.703 Y3.964 E0.03675
G1 X17 Y4.49 E0.03014
G1 X17.169 Y4.852 E0.01993
G1 X17.608 Y5.901 E0.05673
G1 X17.821 Y6.43 E0.02845
G1 X17.888 Y6.584 E0.00838
G1 X18.149 Y7.219 E0.03425
G1 X18.393 Y7.935 E0.03774
G1 X18.521 Y8.546 E0.03114
G1 X18.575 Y9.128 E0.02916
G1 X18.564 Y9.757 E0.03139
G1 X18.493 Y10.302 E0.02742
G1 X18.37 Y10.829 E0.027
G1 X18.188 Y11.37 E0.02848
G1 X17.754 Y12.433 E0.05728
G1 X17.535 Y12.946 E0.02783
G1 X17.455 Y13.147 E0.01079
G1 X17.157 Y13.862 E0.03865
G1 X16.835 Y14.513 E0.03623
G1 X16.535 Y14.971 E0.02732
G1 X16.063 Y15.542 E0.03696
G1 X15.68 Y15.904 E0.02629
G1 X15.134 Y16.317 E0.03416
G1 X14.588 Y16.634 E0.0315
G1 X14.189 Y16.82 E0.02196
G1 X13.124 Y17.266 E0.0576
G1 X12.636 Y17.463 E0.02626
G1 X12.434 Y17.549 E0.01095
G1 X11.706 Y17.848 E0.03926
G1 X11.225 Y18.009 E0.02531
G1 X10.53 Y18.164 E0.03553
G1 X9.8 Y18.233 E0.03658
G1 X9.228 Y18.215 E0.02855
G1 X8.693 Y18.137 E0.02697
G1 X8.01 Y17.965 E0.03514
G1 X7.557 Y17.801 E0.02404
G1 X6.619 Y17.407 E0.05076
G1 X5.298 Y16.867 E0.0712
G1 X4.834 Y16.656 E0.02543
G1 X4.347 Y16.386 E0.02778
G1 X3.793 Y15.983 E0.03418
G1 X3.311 Y15.538 E0.03273
G1 X2.962 Y15.132 E0.02671
G1 X2.585 Y14.58 E0.03335
G1 X2.262 Y13.952 E0.03523
G1 X2.21 Y13.835 E0.00639
G1 X1.779 Y12.806 E0.05566
G1 X1.51 Y12.153 E0.03523
G1 X1.242 Y11.499 E0.03526
G1 X0.97 Y10.701 E0.04206
G1 X0.869 Y10.205 E0.02525
G1 X0.799 Y9.447 E0.03798
G1 X0.817 Y8.898 E0.0274
G1 X0.896 Y8.331 E0.02856
G1 X1.07 Y7.652 E0.03497
G1 X1.22 Y7.24 E0.02187
G1 X1.587 Y6.348 E0.04812
G1 X1.756 Y5.951 E0.02153
G1 X2.165 Y4.961 E0.05344
G1 X2.554 Y4.157 E0.04456
G1 X2.863 Y3.685 E0.02815
G1 X3.242 Y3.226 E0.0297
G1 F1500 E-6.5
;MESH:??????.STL
G0 F3600 X4.893 Y5.186
G0 X5.587 Y5.734
G0 X5.483 Y7.884
G0 X4.861 Y8.428
G0 X4.586 Y9.204
G0 X4.725 Y10.017
G0 X5.603 Y11.684
G0 X5.754 Y12.501
G0 X6.29 Y13.136
G0 X8.112 Y13.781
G0 X9.12 Y14.415
G1 F1500 E6.5
G0 F3600 X9.153 Y14.321
;TYPE:WALL-OUTER
G1 F1800 X9.554 Y14.408 E0.02047
G1 X9.961 Y14.39 E0.02033
G1 X10.347 Y14.272 E0.02014
G1 X10.7 Y14.052 E0.02075
G1 X10.972 Y13.765 E0.01973
G1 X11.175 Y13.394 E0.0211
G1 X11.264 Y13.126 E0.01409
G1 X11.645 Y13.314 E0.0212
G1 X12.031 Y13.391 E0.01964
G1 X12.448 Y13.367 E0.02084
G1 X12.829 Y13.243 E0.01999
G1 X13.175 Y13.02 E0.02054
G1 X13.45 Y12.72 E0.0203
G1 X13.639 Y12.363 E0.02015
G1 X13.733 Y11.959 E0.02069
G1 X13.723 Y11.562 E0.01981
G1 X13.604 Y11.158 E0.02101
G1 X13.476 Y10.905 E0.01415
G1 X13.88 Y10.767 E0.0213
G1 X14.207 Y10.549 E0.01961
G1 X14.484 Y10.238 E0.02078
G1 X14.667 Y9.88 E0.02006
G1 X14.753 Y9.479 E0.02046
G1 X14.736 Y9.072 E0.02032
G1 X14.617 Y8.686 E0.02015
G1 X14.398 Y8.333 E0.02073
G1 X14.11 Y8.061 E0.01976
G1 X13.74 Y7.858 E0.02106
G1 X13.472 Y7.769 E0.01409
G1 X13.659 Y7.388 E0.02117
G1 X13.737 Y7.002 E0.01965
G1 X13.713 Y6.584 E0.02089
G1 X13.588 Y6.205 E0.01991
G1 X13.366 Y5.858 E0.02055
G1 X13.065 Y5.582 E0.02037
G1 X12.709 Y5.394 E0.02009
G1 X12.304 Y5.3 E0.02074
G1 X11.908 Y5.31 E0.01976
G1 X11.503 Y5.429 E0.02106
G1 X11.25 Y5.555 E0.0141
G1 X11.114 Y5.154 E0.02113
G1 X10.895 Y4.827 E0.01963
G1 X10.583 Y4.549 E0.02085
G1 X10.226 Y4.366 E0.02001
G1 X9.825 Y4.28 E0.02046
G1 X9.287 Y4.325 E0.02693
G1 X8.905 Y4.481 E0.02059
G1 X8.584 Y4.72 E0.01997
G1 X8.324 Y5.047 E0.02084
G1 X8.165 Y5.405 E0.01954
G1 X8.115 Y5.561 E0.00817
G1 X7.733 Y5.374 E0.02122
G1 X7.347 Y5.296 E0.01965
G1 X6.931 Y5.32 E0.02079
G1 X6.55 Y5.445 E0.02001
G1 X6.204 Y5.667 E0.02051
G1 X5.928 Y5.968 E0.02037
G1 X5.739 Y6.324 E0.02011
G1 X5.646 Y6.728 E0.02068
G1 X5.656 Y7.124 E0.01976
G1 X5.775 Y7.531 E0.02116
G1 X5.902 Y7.783 E0.01408
G1 X5.5 Y7.919 E0.02117
G1 X5.172 Y8.138 E0.01968
G1 X4.894 Y8.45 E0.02085
G1 X4.712 Y8.807 E0.01999
G1 X4.625 Y9.207 E0.02042
G1 X4.643 Y9.616 E0.02042
G1 X4.761 Y10.001 E0.02009
G1 X4.981 Y10.353 E0.02071
G1 X5.268 Y10.627 E0.0198
G1 X5.639 Y10.829 E0.02107
G1 X5.906 Y10.919 E0.01406
G1 X5.719 Y11.3 E0.02117
G1 X5.642 Y11.686 E0.01964
