;FLAVOR:RepRap
;TIME:250
;Filament used: 0.0416844m
;Layer height: 0.1
;MINX:1.333
;MINY:0.983
;MINZ:0.3
;MAXX:19.033
;MAXY:17.301
;MAXZ:9.8
;Generated with Cura_SteamEngine 4.12.1
T0
M104 S200
M109 S200
M82 ;absolute extrusion mode
G28 ;Home
G1 Z15.0 F6000 ;Move the platform down 15mm
;Prime the extruder
G92 E0
G1 F200 E3
G92 E0
M83 ;relative extrusion mode
G1 F1500 E-6.5
;LAYER_COUNT:96
;LAYER:0
M107
G0 F3600 X2.753 Y3.098 Z0.3
;TYPE:SKIRT
G1 F1500 E6.5
G1 F1800 X3.26 Y2.582 E0.03609
G1 X3.964 Y2.004 E0.04544
G1 X4.536 Y1.661 E0.03327
G1 X5.015 Y1.444 E0.02624
G1 X5.264 Y1.346 E0.01335
G1 X5.877 Y1.148 E0.03214
G1 X6.594 Y1.017 E0.03636
G1 X6.639 Y1.012 E0.00226
G1 X7.402 Y0.983 E0.03809
G1 X7.65 Y0.992 E0.01238
G1 X8.291 Y1.056 E0.03214
G1 X8.92 Y1.198 E0.03217
G1 X9.444 Y1.382 E0.02771
G1 X9.713 Y1.493 E0.01452
G1 X10.293 Y1.776 E0.0322
G1 X10.957 Y2.222 E0.03991
G1 X12.578 Y3.505 E0.10314
G1 X14.697 Y5.089 E0.13199
G1 X16.146 Y6.108 E0.08838
G1 X16.648 Y6.473 E0.03097
G1 X17.145 Y6.884 E0.03218
G1 X17.774 Y7.592 E0.04725
G1 X17.971 Y7.859 E0.01655
G1 X18.321 Y8.4 E0.03215
G1 X18.601 Y8.981 E0.03218
G1 X18.832 Y9.685 E0.03697
G1 X18.945 Y10.206 E0.0266
G1 X19.033 Y10.844 E0.03213
G1 X19.021 Y11.759 E0.04565
G1 X19 Y11.966 E0.01038
G1 X18.896 Y12.602 E0.03215
G1 X18.712 Y13.224 E0.03236
G1 X18.643 Y13.413 E0.01004
G1 X18.384 Y14.004 E0.03219
G1 X17.88 Y14.8 E0.047
G1 X17.73 Y14.995 E0.01227
G1 X17.306 Y15.481 E0.03218
G1 X16.789 Y15.939 E0.03446
G1 X16.311 Y16.282 E0.02935
G1 X16.142 Y16.39 E0.01001
G1 X15.578 Y16.703 E0.03218
G1 X14.948 Y16.954 E0.03383
G1 X14.714 Y17.03 E0.01227
G1 X13.895 Y17.224 E0.04199
G1 X13.784 Y17.241 E0.0056
G1 X12.981 Y17.301 E0.04017
G1 X12.454 Y17.295 E0.02629
G1 X11.777 Y17.245 E0.03387
G1 X10.981 Y17.139 E0.04006
G1 X10.549 Y17.068 E0.02184
G1 X9.923 Y16.915 E0.03215
G1 X9.32 Y16.686 E0.03218
G1 X8.655 Y16.333 E0.03756
G1 X8.115 Y15.981 E0.03216
G1 X7.656 Y15.596 E0.02989
G1 X7.33 Y15.289 E0.02234
G1 X6.84 Y14.833 E0.03339
G1 X4.908 Y13.087 E0.12992
G1 X4.219 Y12.473 E0.04604
G1 X3.999 Y12.265 E0.0151
G1 X3.322 Y11.589 E0.04773
G1 X2.964 Y11.197 E0.02649
G1 X2.561 Y10.68 E0.0327
G1 X2.385 Y10.426 E0.01542
G1 X2.051 Y9.874 E0.03219
G1 X1.773 Y9.257 E0.03376
G1 X1.563 Y8.648 E0.03214
G1 X1.433 Y8.064 E0.02985
G1 X1.345 Y7.425 E0.03218
G1 X1.333 Y6.89 E0.0267
G1 X1.413 Y6.069 E0.04115
G1 X1.457 Y5.823 E0.01247
G1 X1.695 Y4.946 E0.04534
G1 X1.767 Y4.75 E0.01042
G1 X2.026 Y4.16 E0.03215
G1 X2.357 Y3.606 E0.0322
G1 X2.753 Y3.098 E0.03213
G0 F3600 X3.288 Y3.115
G1 F1800 X3.54 Y2.868 E0.0176
G1 X4.19 Y2.335 E0.04194
G1 X4.741 Y2.005 E0.03204
G1 X5.41 Y1.718 E0.03632
G1 X6 Y1.529 E0.03091
G1 X6.638 Y1.414 E0.03234
G1 X6.683 Y1.409 E0.00226
G1 X7.387 Y1.383 E0.03515
G1 X7.635 Y1.392 E0.01238
G1 X8.251 Y1.455 E0.03089
G1 X8.854 Y1.596 E0.0309
G1 X9.561 Y1.863 E0.0377
G1 X10.117 Y2.136 E0.0309
G1 X10.708 Y2.536 E0.0356
G1 X12.295 Y3.792 E0.10097
G1 X14.473 Y5.42 E0.13566
G1 X15.911 Y6.432 E0.08773
G1 X16.413 Y6.797 E0.03097
G1 X16.889 Y7.193 E0.03089
G1 X17.452 Y7.829 E0.04238
G1 X17.649 Y8.096 E0.01655
G1 X17.984 Y8.617 E0.0309
G1 X18.249 Y9.177 E0.03091
G1 X18.444 Y9.782 E0.03171
G1 X18.553 Y10.285 E0.02568
G1 X18.636 Y10.898 E0.03086
G1 X18.623 Y11.718 E0.04092
G1 X18.602 Y11.925 E0.01038
G1 X18.5 Y12.536 E0.0309
G1 X18.336 Y13.087 E0.02868
G1 X18.267 Y13.276 E0.01004
G1 X18.017 Y13.843 E0.03092
G1 X17.563 Y14.557 E0.04221
G1 X17.413 Y14.752 E0.01227
G1 X17.004 Y15.217 E0.0309
G1 X16.544 Y15.622 E0.03058
G1 X16.096 Y15.945 E0.02755
G1 X15.927 Y16.053 E0.01001
G1 X15.384 Y16.352 E0.03093
G1 X14.825 Y16.573 E0.02999
G1 X14.591 Y16.649 E0.01227
G1 X13.835 Y16.829 E0.03877
G1 X13.724 Y16.846 E0.0056
G1 X12.982 Y16.901 E0.03712
G1 X12.471 Y16.896 E0.0255
G1 X11.829 Y16.849 E0.03212
G1 X11.033 Y16.743 E0.04006
G1 X10.62 Y16.674 E0.02089
G1 X10.018 Y16.526 E0.03093
G1 X9.441 Y16.301 E0.0309
G1 X8.852 Y15.985 E0.03335
G1 X8.335 Y15.645 E0.03087
G1 X7.93 Y15.304 E0.02641
G1 X7.627 Y15.019 E0.02075
G1 X7.059 Y14.491 E0.03869
G1 X5.196 Y12.809 E0.12522
G1 X4.485 Y12.175 E0.04753
G1 X4.282 Y11.982 E0.01397
G1 X3.866 Y11.565 E0.02939
G1 X3.273 Y10.943 E0.04287
G1 X2.89 Y10.452 E0.03107
G1 X2.714 Y10.198 E0.01542
G1 X2.394 Y9.667 E0.03093
G1 X2.143 Y9.104 E0.03075
G1 X1.943 Y8.518 E0.03089
G1 X1.825 Y7.985 E0.02724
G1 X1.742 Y7.372 E0.03086
G1 X1.733 Y6.898 E0.02365
G1 X1.807 Y6.14 E0.038
G1 X1.851 Y5.894 E0.01247
G1 X2.07 Y5.084 E0.04186
G1 X2.142 Y4.888 E0.01042
G1 X2.393 Y4.321 E0.03094
G1 X2.714 Y3.792 E0.03087
G1 X3.288 Y3.115 E0.04428
G0 F3600 X3.568 Y3.401
G1 F1800 X3.82 Y3.154 E0.0176
G1 X4.415 Y2.665 E0.03842
G1 X4.434 Y2.652 E0.00115
G1 X4.945 Y2.351 E0.02959
G1 X5.557 Y2.091 E0.03317
G1 X6.122 Y1.911 E0.02958
G1 X6.682 Y1.812 E0.02837
G1 X6.727 Y1.807 E0.00226
G1 X7.373 Y1.783 E0.03225
G1 X7.621 Y1.792 E0.01238
G1 X8.21 Y1.853 E0.02954
G1 X8.787 Y1.993 E0.02962
G1 X9.408 Y2.233 E0.03322
G1 X9.94 Y2.495 E0.02959
G1 X10.46 Y2.849 E0.03138
G1 X12.094 Y4.142 E0.10396
G1 X14.226 Y5.735 E0.13278
G1 X15.676 Y6.755 E0.08845
G1 X16.178 Y7.12 E0.03097
G1 X16.633 Y7.5 E0.02958
G1 X17.131 Y8.067 E0.03765
G1 X17.328 Y8.334 E0.01655
G1 X17.647 Y8.833 E0.02955
G1 X17.896 Y9.372 E0.02962
G1 X18.056 Y9.879 E0.02652
G1 X18.161 Y10.364 E0.02476
G1 X18.239 Y10.952 E0.02959
G1 X18.226 Y11.678 E0.03623
G1 X18.205 Y11.885 E0.01038
G1 X18.105 Y12.47 E0.02961
G1 X17.96 Y12.95 E0.02502
G1 X17.891 Y13.139 E0.01004
G1 X17.651 Y13.681 E0.02957
G1 X17.246 Y14.313 E0.03745
G1 X17.096 Y14.508 E0.01227
G1 X16.703 Y14.952 E0.02958
G1 X16.299 Y15.306 E0.0268
G1 X15.88 Y15.608 E0.02577
G1 X15.711 Y15.716 E0.01001
G1 X15.191 Y16 E0.02956
G1 X14.701 Y16.193 E0.02627
G1 X14.467 Y16.269 E0.01227
G1 X13.774 Y16.433 E0.03553
G1 X13.663 Y16.45 E0.0056
G1 X12.983 Y16.501 E0.03402
G1 X12.276 Y16.487 E0.03528
G1 X11.882 Y16.452 E0.01973
G1 X11.086 Y16.346 E0.04006
G1 X10.69 Y16.28 E0.02003
G1 X10.115 Y16.136 E0.02957
G1 X9.564 Y15.917 E0.02958
G1 X9.05 Y15.637 E0.0292
G1 X8.555 Y15.31 E0.0296
G1 X7.899 Y14.726 E0.04382
G1 X7.331 Y14.198 E0.03869
G1 X5.444 Y12.493 E0.12688
G1 X4.752 Y11.876 E0.04625
G1 X4.565 Y11.7 E0.01281
G1 X4.149 Y11.283 E0.02939
G1 X3.581 Y10.689 E0.041
G1 X3.218 Y10.224 E0.02943
G1 X3.042 Y9.97 E0.01542
G1 X2.738 Y9.461 E0.02958
G1 X2.512 Y8.951 E0.02783
G1 X2.262 Y8.131 E0.04277
G1 X2.217 Y7.907 E0.0114
G1 X2.14 Y7.319 E0.02959
G1 X2.133 Y6.905 E0.02066
G1 X2.201 Y6.21 E0.03484
G1 X2.245 Y5.964 E0.01247
G1 X2.446 Y5.222 E0.03835
G1 X2.518 Y5.026 E0.01042
G1 X2.759 Y4.484 E0.02959
G1 X3.071 Y3.98 E0.02957
G1 X3.568 Y3.401 E0.03807
G0 F3600 X3.848 Y3.686
G1 F1800 X4.1 Y3.439 E0.0176
G1 X4.641 Y2.995 E0.03492
G1 X4.66 Y2.982 E0.00115
G1 X5.148 Y2.696 E0.02822
G1 X5.703 Y2.463 E0.03003
G1 X6.242 Y2.294 E0.02818
G1 X6.771 Y2.204 E0.02677
G1 X7.358 Y2.183 E0.0293
G1 X7.606 Y2.192 E0.01238
G1 X8.168 Y2.252 E0.0282
G1 X8.716 Y2.391 E0.02821
G1 X9.256 Y2.602 E0.02892
G1 X9.762 Y2.854 E0.0282
G1 X10.212 Y3.163 E0.02723
G1 X11.829 Y4.442 E0.10286
G1 X14.025 Y6.084 E0.1368
G1 X15.44 Y7.079 E0.0863
G1 X15.942 Y7.444 E0.03097
G1 X16.375 Y7.808 E0.02822
G1 X16.809 Y8.304 E0.03288
G1 X17.006 Y8.571 E0.01655
G1 X17.308 Y9.049 E0.02821
G1 X17.541 Y9.564 E0.0282
G1 X17.723 Y10.215 E0.03372
G1 X17.769 Y10.443 E0.0116
G1 X17.841 Y11.004 E0.02822
G1 X17.828 Y11.638 E0.03164
G1 X17.807 Y11.845 E0.01038
G1 X17.71 Y12.402 E0.02821
G1 X17.515 Y13.002 E0.03148
G1 X17.285 Y13.518 E0.02818
G1 X16.928 Y14.069 E0.03276
G1 X16.778 Y14.264 E0.01227
G1 X16.403 Y14.686 E0.02817
G1 X15.958 Y15.064 E0.02913
G1 X15.496 Y15.379 E0.0279
G1 X14.999 Y15.649 E0.02822
G1 X14.344 Y15.888 E0.03479
G1 X13.714 Y16.038 E0.03231
G1 X13.603 Y16.055 E0.0056
G1 X12.985 Y16.101 E0.03092
G1 X12.293 Y16.087 E0.03453
G1 X11.935 Y16.056 E0.01793
G1 X11.139 Y15.95 E0.04006
G1 X10.761 Y15.886 E0.01913
G1 X10.213 Y15.748 E0.02819
G1 X9.492 Y15.428 E0.03935
G1 X9.247 Y15.289 E0.01405
G1 X8.776 Y14.976 E0.02821
G1 X8.153 Y14.415 E0.04183
G1 X7.645 Y13.943 E0.0346
G1 X5.712 Y12.196 E0.12999
G1 X5.018 Y11.577 E0.0464
G1 X4.848 Y11.417 E0.01165
G1 X4.166 Y10.736 E0.04808
G1 X3.746 Y10.26 E0.03167
G1 X3.371 Y9.742 E0.0319
G1 X3.083 Y9.256 E0.02818
G1 X2.882 Y8.797 E0.025
G1 X2.654 Y8.052 E0.03887
G1 X2.609 Y7.828 E0.0114
G1 X2.537 Y7.267 E0.02822
G1 X2.533 Y6.912 E0.01771
G1 X2.594 Y6.281 E0.03163
G1 X2.638 Y6.035 E0.01247
G1 X2.821 Y5.36 E0.03489
G1 X2.893 Y5.164 E0.01042
G1 X3.125 Y4.648 E0.02823
G1 X3.428 Y4.17 E0.02824
G1 X3.848 Y3.686 E0.03197
G0 F3600 X4.128 Y3.972
G1 F1800 X4.38 Y3.725 E0.0176
G1 X4.867 Y3.325 E0.03144
G1 X4.886 Y3.312 E0.00115
G1 X5.35 Y3.043 E0.02676
G1 X5.85 Y2.835 E0.02702
G1 X6.362 Y2.676 E0.02675
G1 X6.815 Y2.602 E0.0229
G1 X7.344 Y2.582 E0.02641
G1 X7.592 Y2.591 E0.01238
G1 X8.125 Y2.651 E0.02676
G1 X8.834 Y2.861 E0.03689
G1 X9.103 Y2.972 E0.01452
G1 X9.582 Y3.213 E0.02675
G1 X9.964 Y3.477 E0.02317
G1 X11.581 Y4.757 E0.10289
G1 X13.784 Y6.403 E0.1372
G1 X15.205 Y7.402 E0.08666
G1 X15.707 Y7.767 E0.03097
G1 X16.116 Y8.114 E0.02676
G1 X16.487 Y8.542 E0.02826
G1 X16.684 Y8.809 E0.01655
G1 X16.969 Y9.263 E0.02674
G1 X17.184 Y9.754 E0.02674
G1 X17.331 Y10.294 E0.02792
G1 X17.377 Y10.522 E0.0116
G1 X17.444 Y11.054 E0.02675
G1 X17.43 Y11.597 E0.0271
G1 X17.409 Y11.804 E0.01038
G1 X17.315 Y12.332 E0.02676
G1 X17.14 Y12.865 E0.02799
G1 X16.919 Y13.353 E0.02673
G1 X16.611 Y13.825 E0.02812
G1 X16.461 Y14.02 E0.01227
G1 X16.104 Y14.419 E0.02671
G1 X15.713 Y14.748 E0.02549
G1 X15.281 Y15.041 E0.02604
G1 X14.808 Y15.296 E0.02681
G1 X14.22 Y15.508 E0.03118
G1 X13.653 Y15.643 E0.02908
G1 X13.542 Y15.66 E0.0056
G1 X12.986 Y15.701 E0.02781
G1 X12.31 Y15.688 E0.03373
G1 X11.988 Y15.659 E0.01613
G1 X11.192 Y15.553 E0.04006
G1 X10.831 Y15.493 E0.01826
G1 X10.312 Y15.359 E0.02674
G1 X9.69 Y15.08 E0.03401
G1 X9.445 Y14.941 E0.01405
G1 X8.999 Y14.643 E0.02676
G1 X8.427 Y14.124 E0.03853
G1 X7.913 Y13.646 E0.03502
G1 X5.995 Y11.913 E0.12896
G1 X5.284 Y11.279 E0.04753
G1 X5.131 Y11.135 E0.01048
G1 X4.447 Y10.452 E0.04822
G1 X4.055 Y10.005 E0.02966
G1 X3.7 Y9.514 E0.03023
G1 X3.334 Y8.844 E0.03809
G1 X3.251 Y8.644 E0.0108
G1 X3.047 Y7.973 E0.03499
G1 X3.002 Y7.749 E0.0114
G1 X2.932 Y6.975 E0.03877
G1 X2.933 Y6.92 E0.00274
G1 X2.988 Y6.351 E0.02852
G1 X3.032 Y6.105 E0.01247
G1 X3.197 Y5.498 E0.03138
G1 X3.269 Y5.302 E0.01042
G1 X3.491 Y4.813 E0.02679
G1 X3.783 Y4.364 E0.02672
G1 X4.128 Y3.972 E0.02605
G0 F3600 X4.137 Y4.56
G1 F1800 X4.66 Y4.011 E0.03783
G1 X5.093 Y3.655 E0.02797
G1 X5.112 Y3.642 E0.00115
G1 X5.747 Y3.305 E0.03587
G1 X5.996 Y3.207 E0.01335
G1 X6.48 Y3.06 E0.02524
G1 X6.86 Y3 E0.01919
G1 X7.577 Y2.991 E0.03577
G1 X8.079 Y3.049 E0.02521
G1 X8.682 Y3.231 E0.03142
G1 X8.951 Y3.342 E0.01452
G1 X9.401 Y3.571 E0.02519
G1 X9.716 Y3.791 E0.01917
G1 X11.34 Y5.076 E0.10332
G1 X13.538 Y6.719 E0.13691
G1 X14.97 Y7.726 E0.08734
G1 X15.472 Y8.091 E0.03097
G1 X15.856 Y8.42 E0.02523
G1 X16.362 Y9.046 E0.04016
G1 X16.629 Y9.475 E0.02521
G1 X16.891 Y10.17 E0.03706
G1 X16.985 Y10.601 E0.02201
G1 X17.045 Y11.103 E0.02522
G1 X17.011 Y11.764 E0.03302
G1 X16.92 Y12.261 E0.02521
G1 X16.764 Y12.727 E0.02452
G1 X16.554 Y13.187 E0.02523
G1 X16.144 Y13.776 E0.0358
G1 X15.805 Y14.151 E0.02522
G1 X15.234 Y14.596 E0.03612
G1 X15.065 Y14.704 E0.01001
G1 X14.619 Y14.942 E0.02522
G1 X14.096 Y15.128 E0.02769
G1 X13.592 Y15.247 E0.02584
G1 X12.987 Y15.301 E0.0303
G1 X12.327 Y15.288 E0.03293
G1 X12.041 Y15.263 E0.01432
G1 X11.245 Y15.157 E0.04006
G1 X10.902 Y15.099 E0.01736
G1 X10.413 Y14.971 E0.02522
G1 X9.887 Y14.732 E0.02882
G1 X9.642 Y14.593 E0.01405
G1 X9.223 Y14.31 E0.02523
G1 X8.701 Y13.833 E0.03528
G1 X8.148 Y13.319 E0.03767
G1 X6.248 Y11.602 E0.12776
G1 X5.55 Y10.98 E0.04664
G1 X5.415 Y10.852 E0.00928
G1 X4.728 Y10.168 E0.04837
G1 X4.364 Y9.751 E0.02762
G1 X4.029 Y9.287 E0.02855
G1 X3.703 Y8.691 E0.03389
G1 X3.62 Y8.491 E0.0108
G1 X3.439 Y7.894 E0.03112
G1 X3.394 Y7.67 E0.0114
G1 X3.332 Y6.982 E0.03446
G1 X3.333 Y6.927 E0.00274
G1 X3.382 Y6.422 E0.02531
G1 X3.426 Y6.176 E0.01247
G1 X3.572 Y5.636 E0.02791
G1 X3.644 Y5.44 E0.01042
G1 X3.856 Y4.98 E0.02527
G1 X4.137 Y4.56 E0.02521
G1 F1500 E-6.5
;MESH:mario.stl
G0 F3600 X6.205 Y6.01
G0 X7.193 Y6.855
G1 F1500 E6.5
G0 F3600 X7.603 Y7.169
;TYPE:WALL-INNER
G1 F1800 X7.3 Y7.346 E0.01751
G1 X7.199 Y7.214 E0.00829
G1 X7.131 Y7.038 E0.00566
G1 X7.178 Y6.843 E0.01001
G1 X7.331 Y6.774 E0.00837
G1 X7.511 Y6.928 E0.00904
G1 X7.603 Y7.169 E0.01143
G0 F3600 X7.717 Y7.589
;TYPE:WALL-OUTER
G1 F1800 X7.237 Y7.82 E0.02658
G1 X7.087 Y7.728 E0.00878
G1 X6.847 Y7.412 E0.0198
G1 X6.726 Y7.101 E0.01665
G1 X6.746 Y6.805 E0.0148
G1 X6.869 Y6.569 E0.01328
G1 X7.144 Y6.385 E0.01651
G1 X7.397 Y6.369 E0.01265
G1 X7.64 Y6.468 E0.01309
G1 X7.858 Y6.718 E0.01655
G1 X8.052 Y7.224 E0.02704
G1 X8.044 Y7.329 E0.00525
G1 X7.717 Y7.589 E0.02084
G0 F3600 X7.537 Y7.675
G0 X7.534 Y7.077
G1 F1500 E-6.5
G0 F3600 X7.47 Y7.1
G0 X8.122 Y8.057
G1 F1500 E6.5
G0 F3600 X8.42 Y8.409
G1 F1800 X8.219 Y8.562 E0.0126
G1 X7.983 Y8.554 E0.01178
G1 X7.757 Y8.396 E0.01376
G1 X7.698 Y8.314 E0.00504
G1 X8.113 Y8.04 E0.02481
G1 X8.357 Y7.944 E0.01308
G1 X8.471 Y8.214 E0.01462
G1 X8.42 Y8.409 E0.01006
G0 F3600 X8.261 Y8.53
G0 X8.189 Y8.469
G1 F1500 E-6.5
G0 F3600 X8.185 Y8.461
G0 X9.054 Y8.998
G0 X10.636 Y10.608
G0 X11.298 Y11.199
G1 F1500 E6.5
G0 F3600 X11.748 Y11.753
G1 F1800 X11.729 Y11.788 E0.00199
G1 X11.466 Y11.744 E0.0133
G1 X11.291 Y11.602 E0.01124
G1 X11.224 Y11.415 E0.00991
G1 X11.282 Y11.188 E0.01169
G1 X11.436 Y11.078 E0.00944
G1 X11.638 Y11.037 E0.01028
G1 X11.7 Y11.181 E0.00782
G1 X11.748 Y11.753 E0.02864
G0 F3600 X11.729 Y11.788
G0 X11.57 Y11.762
G0 X11.317 Y11.393
G1 F1500 E-6.5
G0 F3600 X11.331 Y11.397
G0 X12.71 Y11.42
G1 F1500 E6.5
G0 F3600 X13.05 Y11.484
;TYPE:WALL-INNER
G1 F1800 X12.716 Y11.506 E0.0167
G1 X12.69 Y11.184 E0.01612
G1 X12.89 Y11.109 E0.00913
G1 X13.09 Y11.091 E0.01002
G1 X13.223 Y11.163 E0.00755
G1 X13.237 Y11.328 E0.00826
G1 X13.05 Y11.484 E0.01036
G0 F3600 X13.187 Y11.869
;TYPE:WALL-OUTER
G1 F1800 X12.815 Y11.92 E0.01873
G1 X12.416 Y11.874 E0.02004
G1 X12.327 Y11.662 E0.01147
G1 X12.284 Y11.133 E0.02648
G1 X12.353 Y10.882 E0.01299
G1 X12.798 Y10.716 E0.0237
G1 X13.136 Y10.686 E0.01693
G1 X13.388 Y10.768 E0.01322
G1 X13.566 Y10.939 E0.01231
G1 X13.653 Y11.174 E0.0125
G1 X13.625 Y11.476 E0.01513
G1 X13.456 Y11.706 E0.01424
G1 X13.187 Y11.869 E0.01569
G0 F3600 X12.989 Y11.896
G1 F1500 E-6.5
;MESH:NONMESH
G0 F600 X12.989 Y11.896 Z0.4
G0 F3600 X12.957 Y11.389
G0 X11.94 Y10.114
G0 X9.178 Y8.827
G0 X8.404 Y8.398
G1 F1500 E6.5
G0 F3600 X7.894 Y7.704
;TIME_ELAPSED:15.269901
;LAYER:1
M106 S255
;TYPE:WALL-INNER
;MESH:mario.stl
G1 F900 X8.131 Y8.199 E0.00913
G1 X8.096 Y8.238 E0.00087
G1 X8.006 Y8.228 E0.00151
G1 X7.959 Y8.187
G1 X7.499 Y7.725 E0.00878
G1 X7.158 Y7.348 E0.00845
G1 X7.069 Y7.171 E0.00329
G1 X7.054 Y6.86 E0.00518
G1 X7.099 Y6.778 E0.00156
G1 X7.312 Y6.672 E0.00396
G1 X7.413 Y6.699 E0.00174
G1 X7.564 Y6.829 E0.00331
G1 X7.684 Y7.054 E0.00424
G1 X7.894 Y7.704 E0.01136
G0 F5400 X8.266 Y7.555
;TYPE:WALL-OUTER
G1 F600 X8.511 Y8.065 E0.00941
G1 X8.561 Y8.285 E0.00375
G1 X8.464 Y8.473 E0.00352
G1 X8.224 Y8.635 E0.00482
G1 X7.942 Y8.642 E0.00469
G1 X7.783 Y8.564 E0.00295
G1 X7.688 Y8.481 E0.0021
G1 X7.202 Y7.993 E0.01145
G1 X6.826 Y7.577 E0.00933
G1 X6.684 Y7.295 E0.00525
G1 X6.632 Y6.974 E0.00541
G1 X6.67 Y6.725 E0.00419
G1 X6.793 Y6.504 E0.00421
G1 X7.065 Y6.312 E0.00554
G1 X7.327 Y6.262 E0.00444
G1 X7.605 Y6.337 E0.00479
G1 X7.882 Y6.575 E0.00607
G1 X8.052 Y6.895 E0.00603
G1 X8.266 Y7.555 E0.01154
G0 F5400 X8.352 Y7.735
G1 F1500 E-6.5
G0 F5400 X7.901 Y7.95
G0 X8.946 Y9.201
G0 X10.456 Y10.714
G0 X11.308 Y11.275
G0 X12.19 Y11.241
;TYPE:WALL-INNER
G1 F1500 E6.5
G1 F900 X12.843 Y11.017 E0.01148
G1 X13.021 Y10.988 E0.003
G1 X13.288 Y11.077 E0.00468
G1 X13.344 Y11.19 E0.0021
G1 X13.317 Y11.4 E0.00352
G1 X13.151 Y11.544 E0.00365
G1 X12.793 Y11.628 E0.00612
G1 X12.145 Y11.56 E0.01084
G1 X11.61 Y11.464 E0.00904
G1 X11.575 Y11.39 E0.00136
G1 X11.686 Y11.359 E0.00085
G1 X12.19 Y11.241 E0.0046
G0 F5400 X12.079 Y10.856
;TYPE:WALL-OUTER
