;FLAVOR:RepRap
;TIME:258
;Filament used: 0.10029m
;Layer height: 0.1
;MINX:-0.337
;MINY:0.511
;MINZ:0.3
;MAXX:19.506
;MAXY:20.353
;MAXZ:2.8
;Generated with Cura_SteamEngine 4.12.1
T0
M104 S200
M109 S200
M82 ;absolute extrusion mode
G28 ;Home
G1 Z15.0 F6000 ;Move the platform down 15mm
;Prime the extruder
G92 E0
G1 F200 E3
G92 E0
M83 ;relative extrusion mode
G1 F1500 E-6.5
;LAYER_COUNT:26
;LAYER:0
M107
G0 F3600 X1.635 Y1.744 Z0.3
;TYPE:SKIRT
G1 F1500 E6.5
G1 F1800 X1.792 Y1.62 E0.00998
G1 X2.281 Y1.285 E0.02957
G1 X2.752 Y1.043 E0.02642
G1 X3.012 Y0.929 E0.01416
G1 X3.57 Y0.728 E0.02959
G1 X4.133 Y0.607 E0.02873
G1 X4.389 Y0.569 E0.01291
G1 X4.896 Y0.523 E0.0254
G1 X5.41 Y0.511 E0.02565
G1 X13.495 Y0.511 E0.40336
G1 X14.193 Y0.521 E0.03483
G1 X14.694 Y0.557 E0.02506
G1 X14.934 Y0.588 E0.01207
G1 X15.515 Y0.704 E0.02956
G1 X16.187 Y0.938 E0.0355
G1 X16.724 Y1.189 E0.02957
G1 X17.204 Y1.498 E0.02848
G1 X17.414 Y1.653 E0.01302
G1 X17.866 Y2.036 E0.02956
G1 X18.251 Y2.463 E0.02868
G1 X18.414 Y2.669 E0.01311
G1 X18.75 Y3.157 E0.02956
G1 X19.007 Y3.663 E0.02831
G1 X19.095 Y3.868 E0.01113
G1 X19.292 Y4.428 E0.02962
G1 X19.4 Y4.932 E0.02572
G1 X19.445 Y5.223 E0.01469
G1 X19.495 Y5.753 E0.02656
G1 X19.506 Y6.218 E0.02321
G1 X19.506 Y14.314 E0.40391
G1 X19.495 Y15.064 E0.03742
G1 X19.456 Y15.582 E0.02592
G1 X19.429 Y15.784 E0.01017
G1 X19.311 Y16.365 E0.02958
G1 X19.062 Y17.069 E0.03725
G1 X18.809 Y17.606 E0.02962
G1 X18.489 Y18.1 E0.02936
G1 X18.365 Y18.266 E0.01034
G1 X17.979 Y18.716 E0.02958
G1 X17.577 Y19.078 E0.02699
G1 X17.353 Y19.256 E0.01427
G1 X16.865 Y19.593 E0.02959
G1 X16.387 Y19.839 E0.02682
G1 X16.196 Y19.923 E0.01041
G1 X15.639 Y20.124 E0.02954
G1 X15.066 Y20.248 E0.02925
G1 X14.733 Y20.297 E0.01679
G1 X14.197 Y20.343 E0.02684
G1 X13.716 Y20.353 E0.024
G1 X5.673 Y20.353 E0.40127
G1 X4.976 Y20.343 E0.03478
G1 X4.271 Y20.281 E0.03531
G1 X3.689 Y20.166 E0.0296
G1 X2.973 Y19.917 E0.03782
G1 X2.436 Y19.668 E0.02953
G1 X1.911 Y19.33 E0.03115
G1 X1.719 Y19.186 E0.01197
G1 X1.27 Y18.799 E0.02957
G1 X0.911 Y18.4 E0.02678
G1 X0.777 Y18.231 E0.01076
G1 X0.441 Y17.742 E0.0296
G1 X0.193 Y17.258 E0.02713
G1 X0.079 Y16.997 E0.01421
G1 X-.121 Y16.439 E0.02957
G1 X-.242 Y15.877 E0.02868
G1 X-.281 Y15.612 E0.01336
G1 X-.326 Y15.101 E0.02559
G1 X-.336 Y14.701 E0.01996
G1 X-.337 Y6.507 E0.4088
G1 X-.327 Y5.823 E0.03413
G1 X-.263 Y5.1 E0.03621
G1 X-.149 Y4.518 E0.02959
G1 X0.084 Y3.843 E0.03563
G1 X0.335 Y3.306 E0.02957
G1 X0.654 Y2.811 E0.02938
G1 X0.83 Y2.574 E0.01473
G1 X1.214 Y2.123 E0.02955
G1 X1.635 Y1.744 E0.02826
G0 F3600 X2.04 Y1.934
G1 F1800 X2.507 Y1.616 E0.02819
G1 X3.173 Y1.296 E0.03686
G1 X3.705 Y1.106 E0.02818
G1 X4.448 Y0.964 E0.03774
G1 X5.162 Y0.915 E0.03571
G1 X5.415 Y0.911 E0.01262
G1 X13.489 Y0.911 E0.40281
G1 X14.187 Y0.921 E0.03483
G1 X14.882 Y0.985 E0.03482
G1 X15.437 Y1.097 E0.02825
G1 X16.042 Y1.31 E0.032
G1 X16.553 Y1.552 E0.02821
G1 X17.176 Y1.975 E0.03757
G1 X17.606 Y2.342 E0.0282
G1 X18.101 Y2.917 E0.03785
G1 X18.419 Y3.384 E0.02819
G1 X18.728 Y4.026 E0.03555
G1 X18.913 Y4.56 E0.02819
G1 X19.05 Y5.284 E0.03676
G1 X19.102 Y5.983 E0.03497
G1 X19.106 Y6.223 E0.01198
G1 X19.106 Y14.308 E0.40336
G1 X19.095 Y15.058 E0.03742
G1 X19.033 Y15.731 E0.03372
G1 X18.918 Y16.285 E0.02823
G1 X18.689 Y16.924 E0.03387
G1 X18.447 Y17.434 E0.02816
G1 X18.169 Y17.861 E0.02542
G1 X18.045 Y18.027 E0.01034
G1 X17.675 Y18.455 E0.02823
G1 X17.105 Y18.943 E0.03744
G1 X16.638 Y19.262 E0.02822
G1 X16.035 Y19.557 E0.03349
G1 X15.503 Y19.747 E0.02818
G1 X15.007 Y19.852 E0.02529
G1 X14.188 Y19.943 E0.04111
G1 X13.716 Y19.953 E0.02355
G1 X5.679 Y19.953 E0.40097
G1 X4.982 Y19.943 E0.03478
G1 X4.322 Y19.884 E0.03306
G1 X3.767 Y19.773 E0.02824
G1 X3.117 Y19.544 E0.03438
G1 X2.605 Y19.305 E0.02819
G1 X2.151 Y19.01 E0.02701
G1 X1.959 Y18.866 E0.01197
G1 X1.532 Y18.496 E0.02819
G1 X1.091 Y17.982 E0.03379
G1 X0.772 Y17.515 E0.02822
G1 X0.445 Y16.837 E0.03755
G1 X0.256 Y16.304 E0.02821
G1 X0.115 Y15.553 E0.03812
G1 X0.066 Y14.818 E0.03675
G1 X0.064 Y14.7 E0.00589
G1 X0.063 Y6.513 E0.40845
G1 X0.073 Y5.829 E0.03413
G1 X0.134 Y5.15 E0.03401
G1 X0.244 Y4.595 E0.02823
G1 X0.457 Y3.988 E0.03209
G1 X0.698 Y3.476 E0.02823
G1 X0.975 Y3.049 E0.02539
G1 X1.151 Y2.812 E0.01473
G1 X1.519 Y2.383 E0.0282
G1 X2.04 Y1.934 E0.03431
G0 F3600 X2.288 Y2.248
G1 F1800 X2.732 Y1.948 E0.02673
G1 X3.333 Y1.662 E0.03321
G1 X3.839 Y1.484 E0.02676
G1 X4.506 Y1.36 E0.03385
G1 X5.174 Y1.315 E0.0334
G1 X5.419 Y1.311 E0.01222
G1 X13.484 Y1.311 E0.40236
G1 X14.182 Y1.321 E0.03483
G1 X14.831 Y1.382 E0.03252
G1 X15.356 Y1.49 E0.02674
G1 X15.897 Y1.683 E0.02866
G1 X16.38 Y1.914 E0.02671
G1 X16.939 Y2.297 E0.03381
G1 X17.345 Y2.646 E0.02671
G1 X17.787 Y3.165 E0.03401
G1 X18.088 Y3.609 E0.02676
G1 X18.36 Y4.184 E0.03173
G1 X18.534 Y4.691 E0.02674
G1 X18.655 Y5.345 E0.03318
G1 X18.702 Y5.996 E0.03256
G1 X18.706 Y6.228 E0.01158
G1 X18.706 Y14.302 E0.40281
G1 X18.695 Y15.052 E0.03742
G1 X18.636 Y15.678 E0.03137
G1 X18.526 Y16.203 E0.02676
G1 X18.317 Y16.778 E0.03052
G1 X18.085 Y17.261 E0.02673
G1 X17.724 Y17.787 E0.03183
G1 X17.372 Y18.192 E0.02677
G1 X16.856 Y18.629 E0.03373
G1 X16.412 Y18.931 E0.02679
G1 X15.874 Y19.19 E0.02979
G1 X15.369 Y19.369 E0.02673
G1 X14.616 Y19.506 E0.03818
G1 X13.802 Y19.552 E0.04068
G1 X5.684 Y19.553 E0.40501
G1 X4.987 Y19.543 E0.03478
G1 X4.372 Y19.487 E0.03081
G1 X3.847 Y19.38 E0.02673
G1 X3.26 Y19.171 E0.03109
G1 X2.775 Y18.942 E0.02676
G1 X2.199 Y18.546 E0.03487
G1 X1.795 Y18.193 E0.02677
G1 X1.404 Y17.734 E0.03008
G1 X1.103 Y17.29 E0.02676
G1 X0.812 Y16.677 E0.03385
G1 X0.635 Y16.171 E0.02674
G1 X0.51 Y15.495 E0.0343
G1 X0.466 Y14.806 E0.03444
G1 X0.464 Y14.7 E0.00529
G1 X0.463 Y6.518 E0.4082
G1 X0.473 Y5.834 E0.03413
G1 X0.531 Y5.2 E0.03176
G1 X0.637 Y4.674 E0.02677
G1 X0.83 Y4.132 E0.0287
G1 X1.06 Y3.648 E0.02673
G1 X1.472 Y3.051 E0.03619
G1 X1.823 Y2.645 E0.02678
G1 X2.288 Y2.248 E0.0305
G0 F3600 X2.536 Y2.562
G1 F1800 X2.956 Y2.281 E0.02521
G1 X3.494 Y2.028 E0.02966
G1 X3.972 Y1.863 E0.02523
G1 X4.565 Y1.756 E0.03006
G1 X5.187 Y1.715 E0.0311
G1 X5.424 Y1.711 E0.01183
G1 X13.478 Y1.711 E0.40182
G1 X14.176 Y1.721 E0.03483
G1 X14.78 Y1.778 E0.03027
G1 X15.275 Y1.883 E0.02525
G1 X15.751 Y2.056 E0.02527
G1 X16.207 Y2.276 E0.02526
G1 X16.701 Y2.618 E0.02998
G1 X17.083 Y2.95 E0.02525
G1 X17.473 Y3.413 E0.0302
G1 X17.755 Y3.833 E0.02524
G1 X17.993 Y4.342 E0.02803
G1 X18.155 Y4.821 E0.02523
G1 X18.259 Y5.406 E0.02964
G1 X18.302 Y6.009 E0.03016
G1 X18.306 Y6.233 E0.01118
G1 X18.306 Y14.296 E0.40226
G1 X18.295 Y15.046 E0.03742
G1 X18.24 Y15.625 E0.02902
G1 X18.133 Y16.119 E0.02522
G1 X17.944 Y16.632 E0.02728
G1 X17.724 Y17.087 E0.02521
G1 X17.404 Y17.548 E0.028
G1 X17.07 Y17.928 E0.02524
G1 X16.607 Y18.316 E0.03014
G1 X16.187 Y18.599 E0.02527
G1 X15.713 Y18.824 E0.02618
G1 X15.236 Y18.991 E0.02521
G1 X14.558 Y19.11 E0.03434
G1 X13.793 Y19.152 E0.03822
G1 X5.69 Y19.153 E0.40426
G1 X4.993 Y19.143 E0.03478
G1 X4.423 Y19.09 E0.02856
G1 X3.928 Y18.987 E0.02522
G1 X3.404 Y18.797 E0.02781
G1 X2.948 Y18.579 E0.02522
G1 X2.439 Y18.226 E0.0309
G1 X2.06 Y17.892 E0.0252
G1 X1.718 Y17.485 E0.02652
G1 X1.436 Y17.065 E0.02524
G1 X1.179 Y16.517 E0.0302
G1 X1.013 Y16.039 E0.02524
G1 X0.906 Y15.437 E0.0305
G1 X0.865 Y14.794 E0.03214
G1 X0.863 Y6.524 E0.41259
G1 X0.873 Y5.84 E0.03413
G1 X0.928 Y5.249 E0.02961
G1 X1.03 Y4.754 E0.02521
G1 X1.203 Y4.277 E0.02531
G1 X1.422 Y3.821 E0.02524
G1 X1.793 Y3.289 E0.03236
G1 X2.125 Y2.908 E0.02521
G1 X2.536 Y2.562 E0.0268
G1 F1500 E-6.5
;MESH:fan-cover-spider-repaired.stl
G0 F3600 X4.118 Y4.531
G0 X4.656 Y5.231
G0 X5.798 Y5.375
G0 X6.203 Y5.75
;TYPE:WALL-INNER
G1 F1500 E6.5
G1 F1800 X6.072 Y5.511 E0.0136
G1 X6.981 Y5.511 E0.04535
G1 X6.878 Y5.563 E0.00576
G1 X6.203 Y6.006 E0.04028
G1 X6.203 Y5.75 E0.01277
G0 F3600 X5.21 Y5.318
G0 X4.475 Y5.929
G0 X4.967 Y7.065
G1 F1800 X5.161 Y7.053 E0.0097
G1 X4.711 Y7.733 E0.04068
G1 X4.663 Y7.839 E0.00581
G1 X4.663 Y6.923 E0.0457
G1 X4.967 Y7.065 E0.01674
G0 F3600 X4.663 Y8.26
G0 X4.378 Y10.272
G0 X4.417 Y11.094
G0 X4.683 Y12.704
G0 X5.302 Y13.731
G0 X6.73 Y15.044
G0 X9.058 Y15.615
G0 X10.218 Y10.517
G1 F1800 X10.416 Y10.514 E0.00988
G1 X9.947 Y11.058 E0.03583
G1 X9.978 Y11.572 E0.02569
G1 X10.087 Y11.953 E0.01977
G1 X10.317 Y12.836 E0.04552
G1 X10.419 Y13.662 E0.04152
G1 X10.396 Y14.147 E0.02422
G1 X10.325 Y14.421 E0.01412
G1 X10.147 Y14.687 E0.01597
G1 X9.554 Y15.068 E0.03516
G1 X8.972 Y14.656 E0.03558
G1 X8.809 Y14.377 E0.01612
G1 X8.729 Y13.851 E0.02654
G1 X8.751 Y13.399 E0.02258
G1 X8.852 Y12.769 E0.03183
G1 X9.045 Y12.055 E0.0369
G1 X9.218 Y11.352 E0.03612
G1 X9.148 Y10.893 E0.02316
G1 X8.617 Y10.591 E0.03048
G1 X8.581 Y10.406 E0.0094
G1 X8.642 Y10.329 E0.0049
G1 X8.793 Y10.377 E0.00394
G1 X9.262 Y10.223 E0.02463
G1 X9.435 Y9.742 E0.0255
G1 X9.392 Y9.445 E0.01497
G1 X9.579 Y9.129 E0.01832
G1 X9.695 Y9.375 E0.00338
G1 X9.774 Y9.427 E0.00221
G1 X9.717 Y9.781 E0.0139
G1 X9.817 Y10.093 E0.01635
G1 X10.223 Y10.419 E0.02598
G1 X10.218 Y10.517 E0.00071
G0 F3600 X10.555 Y10.512
G1 F1800 X10.574 Y10.587 E0.00386
G1 X10.448 Y10.513 E0.00281
G1 X10.555 Y10.512
G0 F3600 X9.559 Y15.353
G1 F1800 X9.552 Y15.353 E0.00035
G1 X9.555 Y15.344 E0.00014
G1 X9.559 Y15.353 E0
G0 F3600 X12.329 Y15.326
G1 F1800 X12.957 Y14.854 E0.03919
G1 X13.007 Y15.244 E0.01962
G1 X13.086 Y15.353 E0.00672
G1 X12.092 Y15.353 E0.04959
G1 X12.211 Y15.199 E0.00971
G1 X12.329 Y15.326 E0.00371
G0 F3600 X13.455 Y15.552
G0 X14.513 Y15.321
G0 X14.678 Y14.26
G0 X14.353 Y13.845
G1 F1800 X14.024 Y13.79 E0.01664
G1 X14.253 Y13.471 E0.01163
G1 X14.506 Y13.002 E0.02659
G1 X14.506 Y13.471 E0.00684
G1 X14.506 Y13.942 E0.0235
G1 X14.353 Y13.845 E0.00764
G0 F3600 X14.774 Y10.865
G0 X14.331 Y7.033
G1 F1800 X14.506 Y6.922 E0.01034
G1 X14.506 Y7.855 E0.04655
G1 X14.376 Y7.593 E0.01459
G1 X13.999 Y7.054 E0.03282
G1 X14.331 Y7.033 E0.0166
G0 F3600 X14.675 Y5.841
G0 X14.044 Y5.318
G0 X12.939 Y5.88
G1 F1800 X12.954 Y5.994 E0.00574
G1 X12.259 Y5.546 E0.04125
G1 X12.189 Y5.511 E0.0039
G1 X13.086 Y5.511 E0.04475
G1 X12.939 Y5.88 E0.01982
G0 F3600 X14.044 Y5.318
G0 X14.675 Y5.841
G0 X14.279 Y6.875
G0 X14.778 Y10.042
G0 X14.774 Y10.865
G0 X14.295 Y14
G0 X14.675 Y15.023
G0 X10.629 Y15.53
G0 X9.228 Y15.622
G0 X6.739 Y15.27
G1 F1800 X6.895 Y15.124 E0.01066
G1 X7.082 Y15.353 E0.00633
G1 X6.072 Y15.353 E0.05039
G1 X6.203 Y15.114 E0.0136
G1 X6.203 Y14.84 E0.01367
G1 X6.739 Y15.27 E0.03428
G0 F3600 X5.269 Y13.945
G0 X4.712 Y13.88
G1 F1800 X4.663 Y13.92 E0.00316
G1 X4.663 Y13.015 E0.04515
G1 X4.991 Y13.582 E0.01048
G1 X5.152 Y13.798 E0.01344
G1 X4.712 Y13.88 E0.02233
G0 F3600 X4.475 Y14.763
G0 X4.749 Y15.356
;TYPE:WALL-OUTER
G1 F1800 X5.044 Y15.495 E0.01627
G1 X5.37 Y15.474 E0.0163
G1 X5.646 Y15.299 E0.0163
G1 X5.803 Y15.012 E0.01632
G1 X5.803 Y14.685 E0.01631
G1 X5.646 Y14.399 E0.01628
G1 X5.37 Y14.224 E0.0163
G1 X5.208 Y14.194 E0.00822
G1 X4.887 Y14.254 E0.01629
G1 X4.635 Y14.462 E0.0163
G1 X4.515 Y14.767 E0.01635
G1 X4.555 Y15.091 E0.01629
G1 X4.749 Y15.356 E0.01639
G0 F3600 X4.929 Y15.441
G0 X4.886 Y15.53
G0 X7.462 Y15.532
G0 X8.391 Y15.653
G0 X8.391 Y15.753
G1 F1800 X5.038 Y15.753 E0.16728
G1 X4.834 Y15.727 E0.0068
G1 X4.645 Y15.648 E0.00725
G1 X4.488 Y15.528 E0.00804
G1 X4.367 Y15.37 E0.0071
G1 X4.29 Y15.184 E0.00875
G1 X4.263 Y14.976 E0.00815
G1 X4.263 Y14.462 E0.0217
G1 X4.263 Y11.89 E0.12832
G1 X4.263 Y11.089 E0.03996
G1 X4.263 Y10.273 E0.04071
G1 X4.263 Y9.46 E0.04056
G1 X4.263 Y8.882 E0.02884
G1 X4.263 Y5.888 E0.14937
G1 X4.29 Y5.68 E0.01046
G1 X4.367 Y5.494 E0.01004
G1 X4.488 Y5.336 E0.00993
G1 X4.646 Y5.215 E0.00993
G1 X4.832 Y5.138 E0.01004
G1 X5.04 Y5.111 E0.01046
G1 X8.216 Y5.111 E0.15845
G1 X9.124 Y5.111 E0.0453
G1 X10.008 Y5.111 E0.0441
G1 X10.918 Y5.111 E0.0454
G1 X13.721 Y5.111 E0.13984
G1 X14.128 Y5.111 E0.02031
G1 X14.336 Y5.138 E0.01046
G1 X14.52 Y5.214 E0.00993
G1 X14.679 Y5.336 E0.01
G1 X14.801 Y5.495 E0.01
G1 X14.879 Y5.682 E0.01011
G1 X14.906 Y5.888 E0.01037
G1 X14.906 Y9.258 E0.16813
G1 X14.906 Y10.038 E0.03891
G1 X14.906 Y10.858 E0.04091
G1 X14.906 Y11.7 E0.04201
G1 X14.906 Y14.976 E0.16344
G1 X14.879 Y15.182 E0.01037
G1 X14.801 Y15.369 E0.01011
G1 X14.68 Y15.527 E0.00993
G1 X14.521 Y15.649 E0.01
G1 X14.334 Y15.727 E0.01011
G1 X14.13 Y15.753 E0.01026
G1 X13.582 Y15.753 E0.02734
G1 X11.163 Y15.753 E0.12068
G1 X10.742 Y15.753 E0.021
G1 X10.079 Y15.753 E0.03308
G1 X9.032 Y15.753 E0.05224
G1 X8.391 Y15.753 E0.03198
G0 F3600 X8.191 Y15.753
G0 X8.191 Y15.653
G0 X10.059 Y15.622
G0 X13.354 Y15.437
G0 X13.582 Y15.355
G1 F1800 X13.878 Y15.495 E0.01521
G1 X14.204 Y15.474 E0.01447
G1 X14.48 Y15.299 E0.0136
G1 X14.637 Y15.012 E0.01319
G1 X14.637 Y14.685 E0.01494
G1 X14.48 Y14.399 E0.01628
G1 X14.204 Y14.224 E0.0163
G1 X14.042 Y14.194 E0.00822
G1 X13.721 Y14.254 E0.01629
G1 X13.47 Y14.462 E0.01626
G1 X13.349 Y14.766 E0.01632
G1 X13.391 Y15.092 E0.0164
G1 X13.582 Y15.355 E0.01622
G0 F3600 X13.763 Y15.44
G0 X13.72 Y15.53
G0 X10.629 Y15.53
G0 X9.847 Y15.081
G0 X10.115 Y11.115
G0 X10.737 Y10.209
G0 X10.738 Y10.109
G1 F1800 X11.209 Y10.102 E0.0235
G1 X11.326 Y10.071 E0.00604
G1 X11.982 Y9.865 E0.0343
G1 X13.205 Y9.487 E0.06386
G1 X13.699 Y9.307 E0.02623
G1 X13.656 Y8.659 E0.0324
G1 X13.739 Y9.061 E0.0023
G1 X13.761 Y9.433 E0.01378
G1 X13.657 Y9.462 E0.00369
G1 X13.065 Y9.641 E0.01909
G1 X12.013 Y9.964 E0.0186
G1 X11.598 Y10.092 E0.001
G1 X11.072 Y10.269 E0.01761
G1 X10.948 Y10.433 E0.00528
G1 X10.989 Y10.596 E0.00839
G1 X11.079 Y10.679 E0.00611
G1 X11.494 Y10.765 E0.02114
G1 X12.248 Y10.915 E0.03835
G1 X13.601 Y11.201 E0.06899
G1 X13.672 Y11.874 E0.03376
G1 X13.61 Y12.38 E0.02543
G1 X13.634 Y11.873 E0.00116
G1 X13.606 Y11.607 E0.01334
G1 X13.482 Y11.434 E0.00339
G1 X13.372 Y11.36 E0.00553
G1 X12.212 Y11.055 E0.02941
G1 X11.652 Y10.908 E0.00608
G1 X11.417 Y10.868 E0.00775
G1 X11.256 Y10.949 E0.0027
G1 X11.25 Y11.213 E0.01317
G1 X11.684 Y11.558 E0.02766
G1 X12.918 Y12.371 E0.07372
G1 X12.917 Y12.507 E0.00679
G1 X12.875 Y13.03 E0.02618
G1 X12.736 Y13.55 E0.02685
G1 X12.524 Y14.032 E0.02627
G1 X12.271 Y14.371 E0.0211
G1 X12.356 Y14.212
G1 X12.571 Y13.64 E0.01815
G1 X12.72 Y13.135 E0.01477
G1 X12.764 Y12.614 E0.01423
G1 X12.496 Y12.434 E0.01185
G1 X11.329 Y11.554 E0.06119
G1 X10.887 Y11.232 E0.02374
G1 X10.513 Y11.014 E0.0216
G1 X10.356 Y11.196 E0.01199
G1 X10.375 Y11.504 E0.0154
G1 X10.472 Y11.843 E0.01759
G1 X10.711 Y12.761 E0.04733
G1 X10.82 Y13.65 E0.04468
G1 X10.794 Y14.204 E0.02767
G1 X10.696 Y14.583 E0.01953
G1 X10.482 Y14.922 E0.02
G1 X10.394 Y15.004 E0.006
G1 X9.96 Y15.282 E0.02571
G1 X10.079 Y15.588 E0.01638
G1 X10.742 Y15.47 E0.01898
G1 X11.24 Y15.329 E0.02309
G1 X11.764 Y15.122 E0.02811
G1 X12.098 Y14.693 E0.02712
G1 X12.167 Y14.564 E0.0073
G1 X12.377 Y14.79 E0.00935
G1 X12.9 Y14.397 E0.03264
G1 X13.104 Y14.218 E0.01354
G1 X13.314 Y13.837 E0.0217
G1 X13.378 Y13.644 E0.01014
G1 X13.572 Y13.735 E0.00496
G1 X13.913 Y13.259 E0.02921
G1 X14.318 Y12.507 E0.04261
G1 X14.595 Y11.7 E0.04257
G1 X14.735 Y10.858 E0.02583
G1 X14.739 Y10.038 E0.01728
G1 X14.618 Y9.258 E0.02255
G1 X14.381 Y8.504 E0.03943
G1 X14.031 Y7.797 E0.03936
G1 X13.579 Y7.15 E0.03938
G1 X13.203 Y6.728 E0.0282
G1 X13.037 Y6.845 E0.01013
G1 X12.704 Y6.308 E0.03152
G1 X12.061 Y5.894 E0.03815
G1 X11.593 Y5.661 E0.02608
G1 X11.429 Y5.867 E0.01314
G1 X10.918 Y5.436 E0.03335
G1 X10.008 Y5.28 E0.02863
G1 X9.124 Y5.283 E0.0188
G1 X8.216 Y5.445 E0.0293
G1 X7.751 Y5.822 E0.02987
G1 X7.71 Y5.868 E0.00307
G1 X7.556 Y5.669 E0.0079
G1 X7.079 Y5.91 E0.02666
G1 X6.428 Y6.337 E0.03884
G1 X6.35 Y6.448 E0.00677
G1 X6.069 Y6.922 E0.02749
G1 X5.887 Y6.804 E0.01082
G1 X5.514 Y7.245 E0.02882
G1 X5.062 Y7.927 E0.04082
G1 X4.724 Y8.672 E0.04081
G1 X4.506 Y9.46 E0.03555
G1 X4.417 Y10.273 E0.02032
G1 X4.456 Y11.089 E0.01768
G1 X4.625 Y11.89 E0.02853
G1 X4.916 Y12.654 E0.04079
G1 X5.326 Y13.362 E0.04082
G1 X5.668 Y13.821 E0.02856
G1 X5.816 Y13.743 E0.00835
G1 X6.04 Y14.196 E0.02521
G1 X6.719 Y14.741 E0.04344
G1 X6.947 Y14.527 E0.0156
G1 X7.312 Y15.013 E0.03032
G1 X7.42 Y15.128 E0.00787
G1 X7.914 Y15.324 E0.02651
G1 X8.391 Y15.462 E0.02477
G1 X9.032 Y15.582 E0.01897
G1 X9.153 Y15.274 E0.01651
