;FLAVOR:RepRap
;TIME:956
;Filament used: 0.320234m
;Layer height: 0.1
;MINX:-0.765
;MINY:-0.861
;MINZ:0.3
;MAXX:17.64
;MAXY:17.544
;MAXZ:17.6
;Generated with Cura_SteamEngine 4.12.1
T0
M104 S200
M109 S200
M82 ;absolute extrusion mode
G28 ;Home
G1 Z15.0 F6000 ;Move the platform down 15mm
;Prime the extruder
G92 E0
G1 F200 E3
G92 E0
M83 ;relative extrusion mode
G1 F1500 E-6.5
;LAYER_COUNT:174
;LAYER:0
M107
G0 F3600 X0.66 Y0.544 Z0.3
;TYPE:SKIRT
G1 F1500 E6.5
G1 F1800 X1.126 Y0.137 E0.03087
G1 X1.641 Y-.207 E0.0309
G1 X2.196 Y-.482 E0.0309
G1 X2.782 Y-.683 E0.03091
G1 X3.389 Y-.807 E0.03091
G1 X3.909 Y-.85 E0.02603
G1 X4.365 Y-.861 E0.02276
G1 X12.202 Y-.861 E0.39099
G1 X12.9 Y-.851 E0.03483
G1 X13.517 Y-.802 E0.03088
G1 X14.123 Y-.674 E0.0309
G1 X14.708 Y-.469 E0.03093
G1 X15.261 Y-.19 E0.0309
G1 X15.774 Y0.157 E0.0309
G1 X16.238 Y0.567 E0.03089
G1 X16.645 Y1.034 E0.03091
G1 X16.988 Y1.549 E0.03087
G1 X17.263 Y2.105 E0.03095
G1 X17.463 Y2.691 E0.03089
G1 X17.587 Y3.298 E0.03091
G1 X17.629 Y3.814 E0.02583
G1 X17.64 Y4.269 E0.02271
G1 X17.64 Y12.067 E0.38904
G1 X17.631 Y12.794 E0.03627
G1 X17.583 Y13.412 E0.03093
G1 X17.456 Y14.018 E0.03089
G1 X17.253 Y14.603 E0.03089
G1 X16.975 Y15.157 E0.03092
G1 X16.629 Y15.67 E0.03087
G1 X16.219 Y16.135 E0.03093
G1 X15.753 Y16.543 E0.0309
G1 X15.239 Y16.887 E0.03086
G1 X14.684 Y17.163 E0.03092
G1 X14.098 Y17.365 E0.03092
G1 X13.492 Y17.489 E0.03086
G1 X12.966 Y17.533 E0.02633
G1 X12.51 Y17.544 E0.02276
G1 X4.68 Y17.544 E0.39064
G1 X3.982 Y17.535 E0.03483
G1 X3.365 Y17.487 E0.03088
G1 X2.758 Y17.36 E0.03094
G1 X2.174 Y17.156 E0.03086
G1 X1.62 Y16.878 E0.03092
G1 X1.107 Y16.531 E0.0309
G1 X0.642 Y16.122 E0.0309
G1 X0.235 Y15.655 E0.03091
G1 X-.11 Y15.141 E0.03088
G1 X-.385 Y14.586 E0.0309
G1 X-.586 Y14 E0.03091
G1 X-.711 Y13.393 E0.03092
G1 X-.754 Y12.865 E0.02643
G1 X-.765 Y12.402 E0.02311
G1 X-.765 Y4.548 E0.39184
G1 X-.756 Y3.883 E0.03318
G1 X-.707 Y3.266 E0.03088
G1 X-.58 Y2.659 E0.03094
G1 X-.375 Y2.075 E0.03088
G1 X-0.097 Y1.521 E0.03092
G1 X0.25 Y1.008 E0.0309
G1 X0.66 Y0.544 E0.03089
G0 F3600 X1.051 Y0.723
G1 F1800 X1.512 Y0.35 E0.02958
G1 X2.019 Y0.042 E0.0296
G1 X2.562 Y-.195 E0.02956
G1 X3.133 Y-.357 E0.02961
G1 X3.921 Y-.45 E0.03959
G1 X4.365 Y-.461 E0.02216
G1 X12.196 Y-.461 E0.39069
G1 X12.894 Y-.451 E0.03483
G1 X13.485 Y-.402 E0.02959
G1 X14.064 Y-.275 E0.02957
G1 X14.621 Y-0.071 E0.02959
G1 X15.145 Y0.207 E0.02959
G1 X15.627 Y0.552 E0.02957
G1 X16.059 Y0.959 E0.02961
G1 X16.431 Y1.42 E0.02955
G1 X16.739 Y1.927 E0.0296
G1 X16.975 Y2.471 E0.02958
G1 X17.136 Y3.041 E0.02955
G1 X17.229 Y3.825 E0.03939
G1 X17.24 Y4.269 E0.02216
G1 X17.24 Y12.062 E0.38879
G1 X17.231 Y12.789 E0.03627
G1 X17.183 Y13.381 E0.02963
G1 X17.057 Y13.96 E0.02956
G1 X16.854 Y14.517 E0.02958
G1 X16.578 Y15.042 E0.02959
G1 X16.234 Y15.525 E0.02958
G1 X15.828 Y15.957 E0.02958
G1 X15.367 Y16.33 E0.02958
G1 X14.861 Y16.639 E0.02958
G1 X14.318 Y16.876 E0.02956
G1 X13.747 Y17.039 E0.02963
G1 X12.954 Y17.133 E0.03984
G1 X12.51 Y17.144 E0.02216
G1 X4.685 Y17.144 E0.39039
G1 X3.987 Y17.135 E0.03483
G1 X3.396 Y17.087 E0.02958
G1 X2.817 Y16.96 E0.02957
G1 X2.26 Y16.757 E0.02958
G1 X1.735 Y16.481 E0.02959
G1 X1.253 Y16.136 E0.02957
G1 X0.821 Y15.73 E0.02958
G1 X0.447 Y15.269 E0.02962
G1 X0.139 Y14.763 E0.02955
G1 X-0.098 Y14.219 E0.0296
G1 X-.26 Y13.649 E0.02956
G1 X-.354 Y12.854 E0.03994
G1 X-.365 Y12.402 E0.02256
G1 X-.365 Y4.553 E0.39159
G1 X-.356 Y3.888 E0.03318
G1 X-.308 Y3.297 E0.02958
G1 X-.181 Y2.718 E0.02957
G1 X0.023 Y2.161 E0.02959
G1 X0.3 Y1.637 E0.02957
G1 X0.645 Y1.155 E0.02957
G1 X1.051 Y0.723 E0.02958
G0 F3600 X1.039 Y1.308
G1 F1800 X1.441 Y0.911 E0.02819
G1 X1.895 Y0.574 E0.02821
G1 X2.392 Y0.305 E0.02819
G1 X2.922 Y0.108 E0.02821
G1 X3.475 Y-0.011 E0.02822
G1 X4.253 Y-0.059 E0.03889
G1 X4.365 Y-0.061 E0.00559
G1 X12.19 Y-0.061 E0.39039
G1 X12.888 Y-0.051 E0.03483
G1 X13.452 Y-0.003 E0.02824
G1 X14.002 Y0.124 E0.02816
G1 X14.53 Y0.328 E0.02824
G1 X15.024 Y0.603 E0.02821
G1 X15.473 Y0.946 E0.02819
G1 X15.87 Y1.348 E0.02819
G1 X16.207 Y1.803 E0.02825
G1 X16.475 Y2.3 E0.02817
G1 X16.671 Y2.83 E0.02819
G1 X16.791 Y3.383 E0.02823
G1 X16.838 Y4.157 E0.03869
G1 X16.84 Y4.269 E0.00559
G1 X16.84 Y12.058 E0.38859
G1 X16.831 Y12.785 E0.03627
G1 X16.784 Y13.348 E0.02819
G1 X16.658 Y13.899 E0.0282
G1 X16.456 Y14.427 E0.0282
G1 X16.181 Y14.921 E0.02821
G1 X15.839 Y15.371 E0.0282
G1 X15.437 Y15.769 E0.02822
G1 X14.984 Y16.106 E0.02817
G1 X14.487 Y16.376 E0.02822
G1 X13.957 Y16.573 E0.02821
G1 X13.405 Y16.694 E0.02819
G1 X12.622 Y16.742 E0.03914
G1 X12.51 Y16.744 E0.00559
G1 X4.69 Y16.744 E0.39014
G1 X3.992 Y16.735 E0.03483
G1 X3.429 Y16.687 E0.02819
G1 X2.878 Y16.561 E0.0282
G1 X2.35 Y16.359 E0.0282
G1 X1.856 Y16.084 E0.02821
G1 X1.406 Y15.742 E0.0282
G1 X1.008 Y15.34 E0.02822
G1 X0.672 Y14.886 E0.02818
G1 X0.402 Y14.389 E0.02822
G1 X0.205 Y13.859 E0.02821
G1 X0.085 Y13.307 E0.02818
G1 X0.036 Y12.51 E0.03984
G1 X0.035 Y4.559 E0.39668
G1 X0.044 Y3.894 E0.03318
G1 X0.092 Y3.331 E0.02819
G1 X0.218 Y2.78 E0.0282
G1 X0.421 Y2.252 E0.02822
G1 X0.697 Y1.758 E0.02823
G1 X1.039 Y1.308 E0.0282
G0 F3600 X1.432 Y1.47
G1 F1800 X1.829 Y1.11 E0.02674
G1 X2.276 Y0.812 E0.0268
G1 X2.761 Y0.584 E0.02674
G1 X3.275 Y0.431 E0.02676
G1 X3.943 Y0.349 E0.03358
G1 X4.365 Y0.339 E0.02106
G1 X12.185 Y0.339 E0.39014
G1 X12.883 Y0.349 E0.03483
G1 X13.417 Y0.397 E0.02675
G1 X13.938 Y0.523 E0.02674
G1 X14.435 Y0.726 E0.02678
G1 X14.896 Y1 E0.02676
G1 X15.311 Y1.339 E0.02673
G1 X15.671 Y1.737 E0.02677
G1 X15.968 Y2.183 E0.02673
G1 X16.196 Y2.669 E0.02678
G1 X16.348 Y3.183 E0.02674
G1 X16.43 Y3.848 E0.03343
G1 X16.44 Y4.269 E0.02101
G1 X16.44 Y12.053 E0.38835
G1 X16.431 Y12.78 E0.03627
G1 X16.384 Y13.314 E0.02674
G1 X16.259 Y13.835 E0.02673
G1 X16.057 Y14.332 E0.02677
G1 X15.784 Y14.794 E0.02677
G1 X15.446 Y15.21 E0.02674
G1 X15.049 Y15.571 E0.02677
G1 X14.603 Y15.869 E0.02676
G1 X14.118 Y16.097 E0.02674
G1 X13.604 Y16.251 E0.02677
G1 X12.932 Y16.334 E0.03378
G1 X12.51 Y16.344 E0.02106
G1 X4.696 Y16.344 E0.38984
G1 X3.998 Y16.335 E0.03483
G1 X3.463 Y16.288 E0.02679
G1 X2.942 Y16.162 E0.02674
G1 X2.445 Y15.96 E0.02677
G1 X1.984 Y15.687 E0.02673
G1 X1.568 Y15.348 E0.02677
G1 X1.207 Y14.952 E0.02673
G1 X0.909 Y14.506 E0.02676
G1 X0.681 Y14.02 E0.02678
G1 X0.528 Y13.506 E0.02676
G1 X0.445 Y12.832 E0.03388
G1 X0.435 Y12.402 E0.02146
G1 X0.435 Y4.564 E0.39104
G1 X0.444 Y3.899 E0.03318
G1 X0.492 Y3.365 E0.02675
G1 X0.618 Y2.844 E0.02674
G1 X0.82 Y2.347 E0.02677
G1 X1.093 Y1.886 E0.02673
G1 X1.432 Y1.47 E0.02677
G0 F3600 X1.824 Y1.643
G1 F1800 X2.215 Y1.322 E0.02524
G1 X2.652 Y1.067 E0.02524
G1 X3.123 Y0.883 E0.02523
G1 X3.617 Y0.777 E0.02521
G1 X4.275 Y0.74 E0.03288
G1 X12.179 Y0.739 E0.39433
G1 X12.877 Y0.749 E0.03483
G1 X13.38 Y0.796 E0.0252
G1 X13.87 Y0.922 E0.02524
G1 X14.334 Y1.124 E0.02525
G1 X14.76 Y1.396 E0.02522
G1 X15.138 Y1.731 E0.0252
G1 X15.458 Y2.122 E0.02521
G1 X15.713 Y2.559 E0.02524
G1 X15.896 Y3.03 E0.02521
G1 X16.003 Y3.524 E0.02522
G1 X16.039 Y4.179 E0.03273
G1 X16.04 Y12.048 E0.39259
G1 X16.031 Y12.775 E0.03627
G1 X15.985 Y13.278 E0.0252
G1 X15.86 Y13.768 E0.02523
G1 X15.659 Y14.232 E0.02523
G1 X15.388 Y14.659 E0.02523
G1 X15.053 Y15.038 E0.02524
G1 X14.663 Y15.359 E0.0252
G1 X14.227 Y15.615 E0.02522
G1 X13.756 Y15.798 E0.02521
G1 X13.262 Y15.906 E0.02523
G1 X12.6 Y15.943 E0.03308
G1 X4.701 Y15.944 E0.39408
G1 X4.003 Y15.935 E0.03483
G1 X3.499 Y15.888 E0.02525
G1 X3.009 Y15.763 E0.02523
G1 X2.545 Y15.562 E0.02523
G1 X2.119 Y15.291 E0.02519
G1 X1.74 Y14.956 E0.02524
G1 X1.419 Y14.565 E0.02524
G1 X1.164 Y14.129 E0.0252
G1 X0.98 Y13.658 E0.02523
G1 X0.873 Y13.164 E0.02522
G1 X0.836 Y12.488 E0.03378
G1 X0.835 Y4.57 E0.39503
G1 X0.844 Y3.905 E0.03318
G1 X0.891 Y3.401 E0.02525
G1 X1.017 Y2.912 E0.02519
G1 X1.218 Y2.448 E0.02523
G1 X1.489 Y2.021 E0.02523
G1 X1.824 Y1.643 E0.0252
G1 F1500 E-6.5
;MESH:Part1.STL
G0 F3600 X4.649 Y3.274
G0 X4.649 Y4.553
G0 X12.17 Y12.074
G1 F1500 E6.5
G0 F3600 X12.24 Y12.144
;TYPE:WALL-INNER
G1 F1800 X4.635 Y12.144 E0.37941
G1 X4.635 Y4.539 E0.37941
G1 X12.24 Y4.539 E0.37941
G1 X12.24 Y12.144 E0.37941
G0 F3600 X12.64 Y12.544
;TYPE:WALL-OUTER
G1 F1800 X4.235 Y12.544 E0.41933
G1 X4.235 Y4.139 E0.41933
G1 X12.64 Y4.139 E0.41933
G1 X12.64 Y12.544 E0.41933
G0 F3600 X12.44 Y12.544
G0 X11.85 Y11.754
;TYPE:SKIN
G1 F1800 X5.025 Y11.754 E0.3405
G1 X5.025 Y4.929 E0.3405
G1 X11.85 Y4.929 E0.3405
G1 X11.85 Y11.754 E0.3405
G0 F3600 X11.669 Y5.446
G1 F1800 X11.332 Y5.109 E0.02378
G0 F3600 X10.766 Y5.109
G1 F1800 X11.669 Y6.012 E0.06371
G0 F3600 X11.669 Y6.578
G1 F1800 X10.2 Y5.109 E0.10365
G0 F3600 X9.635 Y5.109
G1 F1800 X11.669 Y7.143 E0.14351
G0 F3600 X11.669 Y7.709
G1 F1800 X9.069 Y5.109 E0.18344
G0 F3600 X8.503 Y5.109
G1 F1800 X11.669 Y8.275 E0.22338
G0 F3600 X11.669 Y8.84
G1 F1800 X7.937 Y5.109 E0.26328
G0 F3600 X7.372 Y5.109
G1 F1800 X11.669 Y9.406 E0.30318
G0 F3600 X11.669 Y9.972
G1 F1800 X6.806 Y5.109 E0.34311
G0 F3600 X6.24 Y5.109
G1 F1800 X11.669 Y10.538 E0.38305
G0 F3600 X11.669 Y11.103
G1 F1800 X5.675 Y5.109 E0.42291
G0 F3600 X5.204 Y5.204
G1 F1800 X11.573 Y11.573 E0.44937
G0 F3600 X11.007 Y11.573
G1 F1800 X5.204 Y5.769 E0.40947
G0 F3600 X5.204 Y6.335
G1 F1800 X10.441 Y11.573 E0.36953
G0 F3600 X9.876 Y11.573
G1 F1800 X5.204 Y6.901 E0.32963
G0 F3600 X5.204 Y7.467
G1 F1800 X9.31 Y11.573 E0.2897
G0 F3600 X8.744 Y11.573
G1 F1800 X5.204 Y8.032 E0.2498
G0 F3600 X5.204 Y8.598
G1 F1800 X8.179 Y11.573 E0.2099
G0 F3600 X7.613 Y11.573
G1 F1800 X5.204 Y9.164 E0.16997
G0 F3600 X5.204 Y9.729
G1 F1800 X7.047 Y11.573 E0.13007
G0 F3600 X6.482 Y11.573
G1 F1800 X5.204 Y10.295 E0.09017
G0 F3600 X5.204 Y10.861
G1 F1800 X5.916 Y11.573 E0.05024
G0 F3600 X5.35 Y11.573
G1 F1800 X5.204 Y11.426 E0.01034
;MESH:NONMESH
G0 F600 X5.204 Y11.426 Z0.4
G0 F3600 X12.17 Y12.074
G0 X12.24 Y12.144
;TIME_ELAPSED:20.452511
;LAYER:1
M106 S255
;TYPE:WALL-INNER
;MESH:Part1.STL
G1 F2700 X4.635 Y12.144 E0.12647
G1 X4.635 Y4.539 E0.12647
G1 X12.24 Y4.539 E0.12647
G1 X12.24 Y12.144 E0.12647
G0 F5400 X12.64 Y12.544
;TYPE:WALL-OUTER
G1 F1800 X4.235 Y12.544 E0.13978
G1 X4.235 Y4.139 E0.13978
G1 X12.64 Y4.139 E0.13978
G1 X12.64 Y12.544 E0.13978
G0 F5400 X12.44 Y12.544
G0 X11.85 Y11.754
;TYPE:SKIN
G1 F1800 X5.025 Y11.754 E0.1135
G1 X5.025 Y4.929 E0.1135
G1 X11.85 Y4.929 E0.1135
G1 X11.85 Y11.754 E0.1135
G0 F5400 X11.668 Y10.958
G1 F1800 X11.053 Y11.573 E0.01446
G0 F5400 X10.487 Y11.573
G1 F1800 X11.668 Y10.393 E0.02776
G0 F5400 X11.668 Y9.827
G1 F1800 X9.922 Y11.573 E0.04106
G0 F5400 X9.356 Y11.573
G1 F1800 X11.668 Y9.261 E0.05437
G0 F5400 X11.668 Y8.695
G1 F1800 X8.79 Y11.573 E0.06769
G0 F5400 X8.225 Y11.573
G1 F1800 X11.668 Y8.13 E0.08097
G0 F5400 X11.668 Y7.564
G1 F1800 X7.659 Y11.573 E0.09429
G0 F5400 X7.093 Y11.573
G1 F1800 X11.668 Y6.998 E0.1076
G0 F5400 X11.668 Y6.433
G1 F1800 X6.528 Y11.573 E0.12088
G0 F5400 X5.962 Y11.573
G1 F1800 X11.668 Y5.867 E0.1342
G0 F5400 X11.668 Y5.301
G1 F1800 X5.396 Y11.573 E0.14751
G0 F5400 X5.205 Y11.199
G1 F1800 X11.296 Y5.108 E0.14325
G0 F5400 X10.73 Y5.108
G1 F1800 X5.205 Y10.634 E0.12995
G0 F5400 X5.205 Y10.068
G1 F1800 X10.164 Y5.108 E0.11664
G0 F5400 X9.598 Y5.108
G1 F1800 X5.205 Y9.502 E0.10333
G0 F5400 X5.205 Y8.937
G1 F1800 X9.033 Y5.108 E0.09004
G0 F5400 X8.467 Y5.108
G1 F1800 X5.205 Y8.371 E0.07673
G0 F5400 X5.205 Y7.805
G1 F1800 X7.901 Y5.108 E0.06342
G0 F5400 X7.336 Y5.108
G1 F1800 X5.205 Y7.24 E0.05013
G0 F5400 X5.205 Y6.674
G1 F1800 X6.77 Y5.108 E0.03682
G0 F5400 X6.204 Y5.108
G1 F1800 X5.205 Y6.108 E0.02351
G0 F5400 X5.205 Y5.543
G1 F1800 X5.639 Y5.108 E0.01022
;MESH:NONMESH
G0 F600 X5.639 Y5.108 Z0.5
G0 F5400 X12.17 Y12.074
G0 X12.24 Y12.144
;TIME_ELAPSED:27.362169
;LAYER:2
;TYPE:WALL-INNER
;MESH:Part1.STL
G1 F3600 X4.635 Y12.144 E0.12647
G1 X4.635 Y4.539 E0.12647
G1 X12.24 Y4.539 E0.12647
G1 X12.24 Y12.144 E0.12647
G0 F7200 X12.64 Y12.544
;TYPE:WALL-OUTER
G1 F1800 X4.235 Y12.544 E0.13978
G1 X4.235 Y4.139 E0.13978
G1 X12.64 Y4.139 E0.13978
G1 X12.64 Y12.544 E0.13978
G0 F7200 X12.44 Y12.544
G0 X11.85 Y11.754
;TYPE:SKIN
G1 F1800 X5.025 Y11.754 E0.1135
G1 X5.025 Y4.929 E0.1135
G1 X11.85 Y4.929 E0.1135
G1 X11.85 Y11.754 E0.1135
G0 F7200 X11.669 Y5.446
G1 F1800 X11.332 Y5.109 E0.00793
G0 F7200 X10.766 Y5.109
G1 F1800 X11.669 Y6.012 E0.02124
G0 F7200 X11.669 Y6.578
G1 F1800 X10.2 Y5.109 E0.03455
G0 F7200 X9.635 Y5.109
G1 F1800 X11.669 Y7.143 E0.04784
G0 F7200 X11.669 Y7.709
G1 F1800 X9.069 Y5.109 E0.06115
G0 F7200 X8.503 Y5.109
G1 F1800 X11.669 Y8.275 E0.07446
G0 F7200 X11.669 Y8.84
G1 F1800 X7.937 Y5.109 E0.08776
G0 F7200 X7.372 Y5.109
G1 F1800 X11.669 Y9.406 E0.10106
G0 F7200 X11.669 Y9.972
G1 F1800 X6.806 Y5.109 E0.11437
G0 F7200 X6.24 Y5.109
G1 F1800 X11.669 Y10.538 E0.12768
G0 F7200 X11.669 Y11.103
G1 F1800 X5.675 Y5.109 E0.14097
G0 F7200 X5.204 Y5.204
G1 F1800 X11.573 Y11.573 E0.14979
G0 F7200 X11.007 Y11.573
G1 F1800 X5.204 Y5.769 E0.13649
G0 F7200 X5.204 Y6.335
G1 F1800 X10.441 Y11.573 E0.12318
G0 F7200 X9.876 Y11.573
G1 F1800 X5.204 Y6.901 E0.10988
G0 F7200 X5.204 Y7.467
G1 F1800 X9.31 Y11.573 E0.09657
G0 F7200 X8.744 Y11.573
G1 F1800 X5.204 Y8.032 E0.08327
G0 F7200 X5.204 Y8.598
G1 F1800 X8.179 Y11.573 E0.06997
G0 F7200 X7.613 Y11.573
G1 F1800 X5.204 Y9.164 E0.05666
G0 F7200 X5.204 Y9.729
G1 F1800 X7.047 Y11.573 E0.04336
G0 F7200 X6.482 Y11.573
G1 F1800 X5.204 Y10.295 E0.03006
G0 F7200 X5.204 Y10.861
G1 F1800 X5.916 Y11.573 E0.01675
G0 F7200 X5.35 Y11.573
G1 F1800 X5.204 Y11.426 E0.00345
;MESH:NONMESH
G0 F600 X5.204 Y11.426 Z0.6
G0 F7200 X12.17 Y12.074
G0 X12.24 Y12.144
;TIME_ELAPSED:34.174283
;LAYER:3
;TYPE:WALL-INNER
;MESH:Part1.STL
G1 F3600 X4.635 Y12.144 E0.12647
G1 X4.635 Y4.539 E0.12647
G1 X12.24 Y4.539 E0.12647
G1 X12.24 Y12.144 E0.12647
G0 F7200 X12.64 Y12.544
;TYPE:WALL-OUTER
G1 F1800 X4.235 Y12.544 E0.13978
G1 X4.235 Y4.139 E0.13978
G1 X12.64 Y4.139 E0.13978
G1 X12.64 Y12.544 E0.13978
G0 F7200 X12.44 Y12.544
G0 X11.85 Y11.754
;TYPE:SKIN
G1 F1800 X5.025 Y11.754 E0.1135
G1 X5.025 Y4.929 E0.1135
G1 X11.85 Y4.929 E0.1135
G1 X11.85 Y11.754 E0.1135
G0 F7200 X11.668 Y10.958
G1 F1800 X11.053 Y11.573 E0.01446
G0 F7200 X10.487 Y11.573
G1 F1800 X11.668 Y10.393 E0.02776
G0 F7200 X11.668 Y9.827
G1 F1800 X9.922 Y11.573 E0.04106
G0 F7200 X9.356 Y11.573
G1 F1800 X11.668 Y9.261 E0.05437
G0 F7200 X11.668 Y8.695
G1 F1800 X8.79 Y11.573 E0.06769
G0 F7200 X8.225 Y11.573
G1 F1800 X11.668 Y8.13 E0.08097
G0 F7200 X11.668 Y7.564
G1 F1800 X7.659 Y11.573 E0.09429
G0 F7200 X7.093 Y11.573
G1 F1800 X11.668 Y6.998 E0.1076
G0 F7200 X11.668 Y6.433
G1 F1800 X6.528 Y11.573 E0.12088
G0 F7200 X5.962 Y11.573
G1 F1800 X11.668 Y5.867 E0.1342
G0 F7200 X11.668 Y5.301
G1 F1800 X5.396 Y11.573 E0.14751
G0 F7200 X5.205 Y11.199
G1 F1800 X11.296 Y5.108 E0.14325
G0 F7200 X10.73 Y5.108
G1 F1800 X5.205 Y10.634 E0.12995
G0 F7200 X5.205 Y10.068
G1 F1800 X10.164 Y5.108 E0.11664
G0 F7200 X9.598 Y5.108
G1 F1800 X5.205 Y9.502 E0.10333
G0 F7200 X5.205 Y8.937
G1 F1800 X9.033 Y5.108 E0.09004
G0 F7200 X8.467 Y5.108
G1 F1800 X5.205 Y8.371 E0.07673
G0 F7200 X5.205 Y7.805
G1 F1800 X7.901 Y5.108 E0.06342
G0 F7200 X7.336 Y5.108
G1 F1800 X5.205 Y7.24 E0.05013
G0 F7200 X5.205 Y6.674
G1 F1800 X6.77 Y5.108 E0.03682
G0 F7200 X6.204 Y5.108
G1 F1800 X5.205 Y6.108 E0.02351
G0 F7200 X5.205 Y5.543
G1 F1800 X5.639 Y5.108 E0.01022
;MESH:NONMESH
G0 F600 X5.639 Y5.108 Z0.7
G0 F7200 X12.17 Y12.074
G0 X12.24 Y12.144
;TIME_ELAPSED:40.924734
;LAYER:4
;TYPE:WALL-INNER
;MESH:Part1.STL
G1 F3600 X4.635 Y12.144 E0.12647
G1 X4.635 Y4.539 E0.12647
G1 X12.24 Y4.539 E0.12647
G1 X12.24 Y12.144 E0.12647
G0 F7200 X12.64 Y12.544
;TYPE:WALL-OUTER
G1 F1800 X4.235 Y12.544 E0.13978
G1 X4.235 Y4.139 E0.13978
G1 X12.64 Y4.139 E0.13978
G1 X12.64 Y12.544 E0.13978
G0 F7200 X12.44 Y12.544
G0 X11.85 Y11.754
;TYPE:SKIN
G1 F1800 X5.025 Y11.754 E0.1135
G1 X5.025 Y4.929 E0.1135
G1 X11.85 Y4.929 E0.1135
G1 X11.85 Y11.754 E0.1135
G0 F7200 X11.669 Y5.446
G1 F1800 X11.332 Y5.109 E0.00793
G0 F7200 X10.766 Y5.109
G1 F1800 X11.669 Y6.012 E0.02124
G0 F7200 X11.669 Y6.578
G1 F1800 X10.2 Y5.109 E0.03455
G0 F7200 X9.635 Y5.109
G1 F1800 X11.669 Y7.143 E0.04784
G0 F7200 X11.669 Y7.709
